!!!COM: Haydn, Franz Joseph
!!!OPR: Symphony in D Major
!!!OTL: Affettuoso 
!!!OMV: 4
!!!SCT: H I:93
!!!SCA: Thematisch-bibliographisches Werkevererzeichnis (A. van Hoboken)
!!!YOR: Dover Edition
!!!EED: Frances Bennion
!!!ENC: Frances Bennion
!!!CDT: 1732/3/31/-1809/5/31/
!!!OCY: Österreich
!!!YEC: Copyright (c) 1994, 2000 Center for Computer Assisted Research in the Humanities
!!!YEM: Rights to all derivative editions reserved.
!!!YEM: Refer to licensing agreement for further details.
!!!YEN: United States of America
**kern	**kern	**kern	**kern	**kern	**kern	**kern	**kern	**kern	**kern	**kern	**kern	**kern	**kern	**kern
*k[f#c#]	*k[]	*k[f#c#]	*k[f#c#]	*k[f#c#]	*k[f#c#]	*k[f#c#]	*k[f#c#]	*k[f#c#]	*k[f#c#]	*k[f#c#]	*k[]	*k[]	*k[]	*k[]
*D:	*D:	*D:	*D:	*D:	*D:	*D:	*D:	*D:	*D:	*D:	*D:	*D:	*D:	*D:
*clefF	*clefF4	*clefF	*clefF	*clefC3	*clefF4	*clefF4	*clefF	*clefF	*clefF4	*clefF4	*clefF	*clefF	*clefF	*clefF
*M2/4	*M2/4	*M2/4	*M2/4	*M2/4	*M2/4	*M2/4	*M2/4	*M2/4	*M2/4	*M2/4	*M2/4	*M2/4	*M2/4	*M2/4
*tb16	*tb16	*tb16	*tb16	*tb16	*tb16	*tb16	*tb16	*tb16	*tb16	*tb16	*tb16	*tb16	*tb16	*tb16
=0-	=0-	=0-	=0-	=0-	=0-	=0-	=0-	=0-	=0-	=0-	=0-	=0-	=0-	=0-
4r	4r	4r	4r	4r	4r	4r	4r	4r	4r	4r	4r	4r	4r	4r
4r	4r	8a	4r	4r	4r	4r	4r	4r	4r	4r	4r	4r	4r	4r
.	.	8a	.	.	.	.	.	.	.	.	.	.	.	.
=1	=1	=1	=1	=1	=1	=1	=1	=1	=1	=1	=1	=1	=1	=1
2r	2r	4ff#	8f#	8d	8d	8d	2r	2r	2r	2r	2r	2r	2r	2r
.	.	.	8r	8r	8r	8r	.	.	.	.	.	.	.	.
.	.	16ee	8g	8d	8d	8d	.	.	.	.	.	.	.	.
.	.	16dd	.	.	.	.	.	.	.	.	.	.	.	.
.	.	16cc#	8r	8r	8r	8r	.	.	.	.	.	.	.	.
.	.	16b	.	.	.	.	.	.	.	.	.	.	.	.
=2	=2	=2	=2	=2	=2	=2	=2	=2	=2	=2	=2	=2	=2	=2
2r	2r	4.a	4.f#	4.d	4.d	4.d	2r	2r	2r	2r	2r	2r	2r	2r
.	.	8g#	8e#	8d	8d	8d	.	.	.	.	.	.	.	.
=3	=3	=3	=3	=3	=3	=3	=3	=3	=3	=3	=3	=3	=3	=3
2r	2r	8a	8f#	8d	8d	8d	2r	2r	2r	2r	2r	2r	2r	2r
.	.	8g#	8e#	8d	8d	8d	.	.	.	.	.	.	.	.
.	.	8a	8f#	8d	8d	8d	.	.	.	.	.	.	.	.
.	.	8b	8g	8d	8d	8d	.	.	.	.	.	.	.	.
=4	=4	=4	=4	=4	=4	=4	=4	=4	=4	=4	=4	=4	=4	=4
2r	2r	4a	4f#	4d	4d	4d	2r	2r	2r	2r	2r	2r	2r	2r
.	.	8d	4r	4r	4r	4r	.	.	.	.	.	.	.	.
.	.	8d	.	.	.	.	.	.	.	.	.	.	.	.
=5	=5	=5	=5	=5	=5	=5	=5	=5	=5	=5	=5	=5	=5	=5
2r	2r	4g	2c#	2A#	2A#	2A#	2r	2r	2r	2r	2r	2r	2r	2r
.	.	16f#	.	.	.	.	.	.	.	.	.	.	.	.
.	.	16e	.	.	.	.	.	.	.	.	.	.	.	.
.	.	16d	.	.	.	.	.	.	.	.	.	.	.	.
.	.	16c#	.	.	.	.	.	.	.	.	.	.	.	.
=6	=6	=6	=6	=6	=6	=6	=6	=6	=6	=6	=6	=6	=6	=6
2r	2r	4.d	4.d	4.B	4.B	4.B	2r	2r	2r	2r	2r	2r	2r	2r
.	.	8d#	8c	8F#	8A	8A	.	.	.	.	.	.	.	.
=7	=7	=7	=7	=7	=7	=7	=7	=7	=7	=7	=7	=7	=7	=7
2r	2r	8e	8B	8G	8G	8G	2r	2r	2r	2r	2r	2r	2r	2r
.	.	8f#	8A	8A	8D#	8D#	.	.	.	.	.	.	.	.
.	.	8g	8G	8B	8E	8E	.	.	.	.	.	.	.	.
.	.	8b	8e	8B	8GG	8GG	.	.	.	.	.	.	.	.
=8	=8	=8	=8	=8	=8	=8	=8	=8	=8	=8	=8	=8	=8	=8
2r	2r	8f#	8d	4A	4AA	4AA	2r	2r	2r	2r	2r	2r	2r	2r
.	.	8e	8c#	.	.	.	.	.	.	.	.	.	.	.
.	.	8a	4r	4r	4r	4r	.	.	.	.	.	.	.	.
.	.	8a	.	.	.	.	.	.	.	.	.	.	.	.
=9	=9	=9	=9	=9	=9	=9	=9	=9	=9	=9	=9	=9	=9	=9
2r	2r	4ff#	8f#	8d	8d	8d	2r	2r	2r	2r	2r	2r	2r	2r
.	.	.	8r	8r	8r	8r	.	.	.	.	.	.	.	.
.	.	16ee	8g	8d	8d	8d	.	.	.	.	.	.	.	.
.	.	16dd	.	.	.	.	.	.	.	.	.	.	.	.
.	.	16cc#	8r	8r	8r	8r	.	.	.	.	.	.	.	.
.	.	16b	.	.	.	.	.	.	.	.	.	.	.	.
=10	=10	=10	=10	=10	=10	=10	=10	=10	=10	=10	=10	=10	=10	=10
2r	2r	4.a	4.f#	4.d	4.d	4.d	2r	2r	2r	2r	2r	2r	2r	2r
.	.	8g#	8e#	8d	8d	8d	.	.	.	.	.	.	.	.
=11	=11	=11	=11	=11	=11	=11	=11	=11	=11	=11	=11	=11	=11	=11
2r	2r	8a	8f#	8d	8d	8d	2r	2r	2r	2r	2r	2r	2r	2r
.	.	8g#	8e#	8d	8d	8d	.	.	.	.	.	.	.	.
.	.	8a	8f#	8d	8d	8d	.	.	.	.	.	.	.	.
.	.	8b	8g	8d	8d	8d	.	.	.	.	.	.	.	.
=12	=12	=12	=12	=12	=12	=12	=12	=12	=12	=12	=12	=12	=12	=12
2r	2r	4a	4f#	4d	4d	4d	2r	2r	2r	2r	2r	2r	2r	2r
.	.	8d	4r	4r	4r	4r	.	.	.	.	.	.	.	.
.	.	8d	.	.	.	.	.	.	.	.	.	.	.	.
=13	=13	=13	=13	=13	=13	=13	=13	=13	=13	=13	=13	=13	=13	=13
2r	2r	4g	2d	2G	2BB-	2BB-	2r	2r	2r	2r	2r	2r	2r	2r
.	.	8e	.	.	.	.	.	.	.	.	.	.	.	.
.	.	8e	.	.	.	.	.	.	.	.	.	.	.	.
=14	=14	=14	=14	=14	=14	=14	=14	=14	=14	=14	=14	=14	=14	=14
2r	2r	4cc#	2e 2c#	2A	4AA	4AA	2r	2r	2r	2r	2r	2r	2r	2r
.	.	8a	.	.	4GG	4GG	.	.	.	.	.	.	.	.
.	.	8a	.	.	.	.	.	.	.	.	.	.	.	.
=15	=15	=15	=15	=15	=15	=15	=15	=15	=15	=15	=15	=15	=15	=15
2r	2r	8aa	8d	8A	8FF#	8FF#	2r	2r	2r	2r	2r	2r	2r	2r
.	.	8aa	8e	8B	8GG	8GG	.	.	.	.	.	.	.	.
.	.	16aa	16f#	8A	8AA	8AA	.	.	.	.	.	.	.	.
.	.	16gg	16e	.	.	.	.	.	.	.	.	.	.	.
.	.	16ff#	16d	8A	8AA	8AA	.	.	.	.	.	.	.	.
.	.	16ee	16c#	.	.	.	.	.	.	.	.	.	.	.
=16	=16	=16	=16	=16	=16	=16	=16	=16	=16	=16	=16	=16	=16	=16
4r	4r	4dd	4d	4F#	4D	4D	4r	4r	4r	4r	4r	4r	4r	4r
8a	4r	4r	8A	4r	4r	4r	4r	4r	8A	8A	4r	4r	4r	4r
8a	.	.	8A	.	.	.	.	.	8A	8A	.	.	.	.
=17	=17	=17	=17	=17	=17	=17	=17	=17	=17	=17	=17	=17	=17	=17
4.cc#	4AA	4r	4g	2r	2r	2r	4r	2r	8e	8e	4dd	4g	4dd	4g
.	.	.	.	.	.	.	.	.	8e	8e	.	.	.	.
.	4r	8a	16g	.	.	.	8a	.	16e	16e	4r	4r	4r	4r
.	.	.	16f#	.	.	.	.	.	16d	16d	.	.	.	.
8dd	.	8a	16e	.	.	.	8a	.	16c#	16c#	.	.	.	.
.	.	.	16d	.	.	.	.	.	16B	16B	.	.	.	.
=18	=18	=18	=18	=18	=18	=18	=18	=18	=18	=18	=18	=18	=18	=18
4ee	4AA	8gg	4c#	4r	4r	2r	8ee	4r	4A	4A	4dd	4g	4dd	4g
.	.	8gg	.	.	.	.	8ee	.	.	.	.	.	.	.
8a	4r	16gg	4r	8A	8A	.	16ee	8a	8A	8A	4r	4r	4r	4r
.	.	16ff#	.	.	.	.	16dd	.	.	.	.	.	.	.
8a	.	16ee	.	8A	8A	.	16cc#	8a	8A	8A	.	.	.	.
.	.	16dd	.	.	.	.	16b	.	.	.	.	.	.	.
=19	=19	=19	=19	=19	=19	=19	=19	=19	=19	=19	=19	=19	=19	=19
4.ccc#	4AA	4cc#	4r	8g	8g	2r	4a	8ee	8e	8e	4dd	4g	4dd	4g
.	.	.	.	8g	8g	.	.	8ee	8e	8e	.	.	.	.
.	4r	8a	8a	16g	16g	.	8a	16ee	16e	16e	4r	4r	4r	4r
.	.	.	.	16f#	16f#	.	.	16dd	16d	16d	.	.	.	.
8ddd	.	8a	8a	16e	16e	.	8a	16cc#	16c#	16c#	.	.	.	.
.	.	.	.	16d	16d	.	.	16b	16B	16B	.	.	.	.
=20	=20	=20	=20	=20	=20	=20	=20	=20	=20	=20	=20	=20	=20	=20
4eee	4AA	8bb	8gg	4c#	4c#	4r	8bb	8a	4A	4A	4dd	4g	4dd	4g
.	.	8bb	8gg	.	.	.	8bb	8gg	.	.	.	.	.	.
8a	4r	16bb	16gg	8A	8AA	8AA	16bb	16gg	8AA	8AA	4r	4r	4r	4r
.	.	16aa	16ff#	.	.	.	16aa	16ff#	.	.	.	.	.	.
8a	.	16gg	16ee	8A	8AA	8AA	16gg	16ee	8AA	8AA	.	.	.	.
.	.	16ff#	16dd	.	.	.	16ff#	16dd	.	.	.	.	.	.
=21	=21	=21	=21	=21	=21	=21	=21	=21	=21	=21	=21	=21	=21	=21
2aa	4AA	4.ee	4.cc#	[2A	8G	8G	4.ee	4.cc#	8G	8G	4dd	4g	4dd	4g
.	.	.	.	.	8G	8G	.	.	8G	8G	.	.	.	.
.	4r	.	.	.	16G	16G	.	.	16G	16G	4r	4r	4r	4r
.	.	.	.	.	16F#	16F#	.	.	16F#	16F#	.	.	.	.
.	.	8ff#	8dd	.	16E	16E	8ff#	8dd	16E	16E	.	.	.	.
.	.	.	.	.	16D	16D	.	.	16D	16D	.	.	.	.
=22	=22	=22	=22	=22	=22	=22	=22	=22	=22	=22	=22	=22	=22	=22
4.gg	4.AA	4.gg	4.ee	2A_	4.C#	4.C#	4.gg	4.ee	4C#	4C#	4.gg	4.g	4.g	4.G
.	.	.	.	.	.	.	.	.	4r	4r	.	.	.	.
8ff#	8AA	8ff#	8dd#	.	8AA	8AA	8ff#	8dd#	.	.	8gg	8g	8g	8G
=23	=23	=23	=23	=23	=23	=23	=23	=23	=23	=23	=23	=23	=23	=23
8gg	8AA	8gg	8ee	8A]	8AA	8AA	8gg	8ee	8r	8r	8gg	8g	8g	8G
8ff#	8AA	8ff#	8dd#	8A	8AA	8AA	8ff#	8dd#	8AA	8AA	8gg	8g	8g	8G
8gg	8AA	8gg	8ee	8A	8AA	8AA	8gg	8ee	8AA	8AA	8gg	8g	8g	8G
8aa	8AA	8aa	8ff#	8A	8AA	8AA	8aa	8ff#	8AA	8AA	8gg	8g	8g	8G
=24	=24	=24	=24	=24	=24	=24	=24	=24	=24	=24	=24	=24	=24	=24
8gg	8AA	8gg	8ee	8C#	8AA	8AA	8gg	8ee	8AA	8AA	8gg	8g	8g	8G
8r	8r	8r	8r	8r	8r	8r	8r	8r	8r	8r	8r	8r	8r	8r
4r	4r	8a	4r	4r	4r	4r	4r	4r	4r	4r	4r	4r	4r	4r
.	.	8a	.	.	.	.	.	.	.	.	.	.	.	.
=25	=25	=25	=25	=25	=25	=25	=25	=25	=25	=25	=25	=25	=25	=25
2r	2r	4ff	[2d	2a	2D	2D	2r	2r	2r	2r	2r	2r	2r	2r
.	.	16ee	.	.	.	.	.	.	.	.	.	.	.	.
.	.	16dd	.	.	.	.	.	.	.	.	.	.	.	.
.	.	16cc	.	.	.	.	.	.	.	.	.	.	.	.
.	.	16b-	.	.	.	.	.	.	.	.	.	.	.	.
=26	=26	=26	=26	=26	=26	=26	=26	=26	=26	=26	=26	=26	=26	=26
2r	2r	8a	2d]	2B	2E	2E	2r	2r	2r	2r	2r	2r	2r	2r
.	.	8g#	.	.	.	.	.	.	.	.	.	.	.	.
.	.	8g	.	.	.	.	.	.	.	.	.	.	.	.
.	.	8g	.	.	.	.	.	.	.	.	.	.	.	.
=27	=27	=27	=27	=27	=27	=27	=27	=27	=27	=27	=27	=27	=27	=27
2r	2r	4ee	2c#	2g	2AA	2AA	2r	2r	2r	2r	2g	2G	2r	2r
.	.	16dd	.	.	.	.	.	.	.	.	.	.	.	.
.	.	16cc#	.	.	.	.	.	.	.	.	.	.	.	.
.	.	16b-	.	.	.	.	.	.	.	.	.	.	.	.
.	.	16a	.	.	.	.	.	.	.	.	.	.	.	.
=28	=28	=28	=28	=28	=28	=28	=28	=28	=28	=28	=28	=28	=28	=28
2r	2r	8g	2c	2A	[2D	[2D	2r	2r	2r	2r	4cc	4c	2r	2r
.	.	8f#	.	.	.	.	.	.	.	.	.	.	.	.
.	.	8dd	.	.	.	.	.	.	.	.	4r	4r	.	.
.	.	8dd	.	.	.	.	.	.	.	.	.	.	.	.
=29	=29	=29	=29	=29	=29	=29	=29	=29	=29	=29	=29	=29	=29	=29
2r	2r	8a	4.B-	4.B-	2D_	2D_	2r	2r	2r	2r	2r	2r	2r	2r
.	.	8g	.	.	.	.	.	.	.	.	.	.	.	.
.	.	8dd	.	.	.	.	.	.	.	.	.	.	.	.
.	.	8dd	8g	8G	.	.	.	.	.	.	.	.	.	.
=30	=30	=30	=30	=30	=30	=30	=30	=30	=30	=30	=30	=30	=30	=30
2r	2r	8b-	2f#	2D	2D]	2D]	2r	2r	2r	2r	2r	2r	2r	2r
.	.	8a	.	.	.	.	.	.	.	.	.	.	.	.
.	.	8dd	.	.	.	.	.	.	.	.	.	.	.	.
.	.	8dd	.	.	.	.	.	.	.	.	.	.	.	.
=31	=31	=31	=31	=31	=31	=31	=31	=31	=31	=31	=31	=31	=31	=31
4r	2r	8cc	8a	4r	4G	4G	4r	4r	4r	4r	2r	2r	2r	2r
.	.	8b-	8g	.	.	.	.	.	.	.	.	.	.	.
8dd	.	8d	8d	8d	8D	8D	8dd	8dd	8D	8D	.	.	.	.
8dd	.	8d	8d	8d	8D	8D	8dd	8dd	8D	8D	.	.	.	.
=32	=32	=32	=32	=32	=32	=32	=32	=32	=32	=32	=32	=32	=32	=32
4bb-	2r	4b-	4b-	4b-	4B-	4B-	4bb-	4bb-	4B-	4B-	2r	2r	2r	2r
4bb-	.	4b-	4b-	4b-	4B-	4B-	4bb-	4bb-	4B-	4B-	.	.	.	.
=33	=33	=33	=33	=33	=33	=33	=33	=33	=33	=33	=33	=33	=33	=33
8.bb-	2r	8.b-	8.b-	8.b-	8.B-	8.B-	8.bb-	8.bb-	8.B-	8.B-	2r	2r	2r	2r
16aa	.	16a	16a	16a	16A	16A	16aa	16aa	16A	16A	.	.	.	.
16gg	.	16g	16g	16g	16G	16G	16gg	16gg	16G	16G	.	.	.	.
16ff	.	16f	16f	16f	16F	16F	16ff	16ff	16F	16F	.	.	.	.
16ee	.	16e	16e	16e	16E	16E	16ee	16ee	16E	16E	.	.	.	.
16dd	.	16d	16d	16d	16D	16D	16dd	16dd	16D	16D	.	.	.	.
=34	=34	=34	=34	=34	=34	=34	=34	=34	=34	=34	=34	=34	=34	=34
[2aa	4AA	4c#	4c#	4A	4AA	4AA	2cc#	[2cc#	2A	2A	4dd	4g	4dd	4g
.	4r	8A	8A	4r	4r	4r	.	.	.	.	4r	4r	4r	4r
.	.	8A	8A	.	.	.	.	.	.	.	.	.	.	.
=35	=35	=35	=35	=35	=35	=35	=35	=35	=35	=35	=35	=35	=35	=35
2aa_	4AA	4e	4e	4E 4c#	4AA	4AA	2ee	2cc#]	2e	2c#	4dd	4g	4dd	4g
.	4r	8A	8A	4r	4r	4r	.	.	.	.	4r	4r	4r	4r
.	.	8A	8A	.	.	.	.	.	.	.	.	.	.	.
=36	=36	=36	=36	=36	=36	=36	=36	=36	=36	=36	=36	=36	=36	=36
2aa]	4AA	4g	4e	4c# 4E	4AA	4AA	2gg	2ee	2g	2e	4dd	4g	4dd	4g
.	4r	8e	8c#	4r	4r	4r	.	.	.	.	4r	4r	4r	4r
.	.	8e	8c#	.	.	.	.	.	.	.	.	.	.	.
=37	=37	=37	=37	=37	=37	=37	=37	=37	=37	=37	=37	=37	=37	=37
8ccc#	8AA	8cc#	8e	8E 8c#	8AA	8AA	8cc#	8a	8c#	8A	2r	2r	8dd	8g
8r	8r	8a	8c#	8r	8r	8r	8r	8r	8r	8r	.	.	8r	8r
8eee	8AA	8ee	8cc#	8c# 8E	8AA	8AA	8ee	8cc#	8e	8c#	.	.	8dd	8g
8r	8r	8cc#	8a	8r	8r	8r	8r	8r	8r	8r	.	.	8r	8r
=38	=38	=38	=38	=38	=38	=38	=38	=38	=38	=38	=38	=38	=38	=38
2gg	4AA	4gg	4ee	4c# 4E	4AA	4AA	[2gg	[2ee	4g	4e	[2g	[2G	4dd	4g
.	4r	4r	4r	4r	4r	4r	.	.	4r	4r	.	.	4r	4r
=39	=39	=39	=39	=39	=39	=39	=39	=39	=39	=39	=39	=39	=39	=39
2ccc#	2r	2r	2r	2r	2r	2r	2gg_	2ee]	2r	2r	2g_	2G_	2r	2r
=40	=40	=40	=40	=40	=40	=40	=40	=40	=40	=40	=40	=40	=40	=40
[2eee	2r	2r	2r	2r	2r	2r	2gg_	[2cc#	2r	2r	2g_	2G_	2r	2r
=41	=41	=41	=41	=41	=41	=41	=41	=41	=41	=41	=41	=41	=41	=41
2eee_	2r	2r	2r	2r	2r	2r	2gg_	2cc#_	2r	2r	2g_	2G_	2r	2r
=42	=42	=42	=42	=42	=42	=42	=42	=42	=42	=42	=42	=42	=42	=42
2eee]	2r	4r	2r	2r	2r	2r	2gg]	2cc#]	4r	4r	2g]	2G]	2r	2r
.	.	8a	.	.	.	.	.	.	8A	8A	.	.	.	.
.	.	8a	.	.	.	.	.	.	8A	8A	.	.	.	.
=43	=43	=43	=43	=43	=43	=43	=43	=43	=43	=43	=43	=43	=43	=43
4ddd	2r	4ff#	8f#	8d	8d	8d	4ff#	2r	4f#	4f#	[2c	[2C	2r	2r
.	.	.	8r	8r	8r	8r	.	.	.	.	.	.	.	.
16eee	.	16ee	8g	8d	8d	8d	4gg	.	16e	16e	.	.	.	.
16ddd	.	16dd	.	.	.	.	.	.	16d	16d	.	.	.	.
16ccc#	.	16cc#	8r	8r	8r	8r	.	.	16c#	16c#	.	.	.	.
16bb	.	16b	.	.	.	.	.	.	16B	16B	.	.	.	.
=44	=44	=44	=44	=44	=44	=44	=44	=44	=44	=44	=44	=44	=44	=44
4.aa	2r	4.a	4.f#	4.d	4.d	4.d	4.ff#	2r	4.A	4.A	2c_	2C_	2r	2r
8gg#	.	8g#	8e#	8d	8d	8d	8ee#	.	8G#	8G#	.	.	.	.
=45	=45	=45	=45	=45	=45	=45	=45	=45	=45	=45	=45	=45	=45	=45
8aa	2r	8a	8f#	8d	8d	8d	8ff#	2r	8A	8A	2c_	2C_	2r	2r
8gg#	.	8g#	8e#	8d	8d	8d	8ee#	.	8G#	8G#	.	.	.	.
8aa	.	8a	8f#	8d	8d	8d	8ff#	.	8A	8A	.	.	.	.
8bb	.	8b	8g	8d	8d	8d	8gg	.	8B	8B	.	.	.	.
=46	=46	=46	=46	=46	=46	=46	=46	=46	=46	=46	=46	=46	=46	=46
4aa	2r	4a	4f#	4d	4d	4d	4ff#	2r	4A	4A	4c]	4C]	2r	2r
8dd	.	8d	4r	4r	4r	4r	4r	.	8D	8D	4r	4r	.	.
8dd	.	8d	.	.	.	.	.	.	8D	8D	.	.	.	.
=47	=47	=47	=47	=47	=47	=47	=47	=47	=47	=47	=47	=47	=47	=47
4gg	2r	4g	2d	2G	2BB-	2BB-	2r	2r	4G	4G	2r	2r	2r	2r
8ee	.	8e	.	.	.	.	.	.	8E	8E	.	.	.	.
8ee	.	8e	.	.	.	.	.	.	8E	8E	.	.	.	.
=48	=48	=48	=48	=48	=48	=48	=48	=48	=48	=48	=48	=48	=48	=48
4ccc#	2r	4cc#	2e 2c#	2A	4AA	4AA	2r	2r	4c#	4c#	2r	2r	2r	2r
8aa	.	8a	.	.	4GG	4GG	.	.	8A	8A	.	.	.	.
8aa	.	8a	.	.	.	.	.	.	8A	8A	.	.	.	.
=49	=49	=49	=49	=49	=49	=49	=49	=49	=49	=49	=49	=49	=49	=49
8ddd	2r	8aa	8d	8A	8FF#	8FF#	2r	2r	8a	8a	2r	2r	2r	2r
8aa	.	8aa	8e	8B	8GG	8GG	.	.	8a	8a	.	.	.	.
16aa	.	16aa	16f#	8A	8AA	8AA	.	.	16a	16a	.	.	.	.
16gg	.	16gg	16e	.	.	.	.	.	16g	16g	.	.	.	.
16ff#	.	16ff#	16d	8A	8AA	8AA	.	.	16f#	16f#	.	.	.	.
16ee	.	16ee	16c#	.	.	.	.	.	16e	16e	.	.	.	.
=50	=50	=50	=50	=50	=50	=50	=50	=50	=50	=50	=50	=50	=50	=50
4dd	4r	4dd	4d	4F#	4D	4D	4r	4r	4d	4d	4r	4r	4r	4r
8b	4r	8b	8b	8B	8BB	8BB	8b	8b	8BB	8BB	4r	4r	4r	4r
8b	.	8b	8b	8B	8BB	8BB	8b	8b	8BB	8BB	.	.	.	.
=51	=51	=51	=51	=51	=51	=51	=51	=51	=51	=51	=51	=51	=51	=51
8bb	2r	8bb	8bb	8b	8B	8B	8bb	8bb	8B	8B	2r	2r	2r	2r
8bb	.	8bb	8bb	8b	8B	8B	8bb	8bb	8B	8B	.	.	.	.
16bb	.	16bb	16bb	16b	16B	16B	16bb	16bb	16B	16B	.	.	.	.
16aa	.	16aa	16aa	16a	16A	16A	16aa	16aa	16A	16A	.	.	.	.
16gg	.	16gg	16gg	16g	16G	16G	16gg	16gg	16G	16G	.	.	.	.
16ff#	.	16ff#	16ff#	16f#	16F#	16F#	16ff#	16ff#	16F#	16F#	.	.	.	.
=52	=52	=52	=52	=52	=52	=52	=52	=52	=52	=52	=52	=52	=52	=52
8ee	2r	8ee	8ee	8e	8E	8E	8ee	8ee	8E	8E	2r	2r	2r	2r
8r	.	8r	8r	8r	8r	8r	8r	8r	8r	8r	.	.	.	.
8b	.	8dd# 8f#	8dd# 8f#	8b	8A	8A	8b	8b	8BB	8BB	.	.	.	.
8b	.	8r	8r	8r	8r	8r	8b	8b	8BB	8BB	.	.	.	.
=53	=53	=53	=53	=53	=53	=53	=53	=53	=53	=53	=53	=53	=53	=53
8bb	2r	8g 8ee 8b	8ee 8g 8b	8b	8G	8G	8bb	8bb	8B	8B	2r	2r	2r	2r
8bb	.	8r	8r	8r	8r	8r	8bb	8bb	8B	8B	.	.	.	.
16bb	.	8ff# 8b	8ff# 8b	8b	8D#	8D#	16bb	16bb	16B	16B	.	.	.	.
16aa	.	.	.	.	.	.	16aa	16aa	16A	16A	.	.	.	.
16gg	.	8r	8r	8r	8r	8r	16gg	16gg	16G	16G	.	.	.	.
16ff#	.	.	.	.	.	.	16ff#	16ff#	16F#	16F#	.	.	.	.
=54	=54	=54	=54	=54	=54	=54	=54	=54	=54	=54	=54	=54	=54	=54
8ee	4r	8gg 8e 8b	8gg 8e 8b	8b	8E	8E	8ee	8ee	8E	8E	4r	4r	4r	4r
8r	.	8r	8r	8r	8r	8r	8r	8r	8r	8r	.	.	.	.
8a	8AA	8a	8a	8A	8AA	8AA	8a	8a	8AA	8AA	8gg	8g	8gg	8g
8a	8AA	8a	8a	8A	8AA	8AA	8a	8a	8AA	8AA	8gg	8g	8gg	8g
=55	=55	=55	=55	=55	=55	=55	=55	=55	=55	=55	=55	=55	=55	=55
8aa	8AA	8aa	8aa	8a	8A	8A	8aa	8aa	8A	8A	8gg	8g	8gg	8g
8aa	8r	8aa	8aa	8a	8A	8A	8aa	8aa	8A	8A	8r	8r	8r	8r
16aa	8AA	16aa	16aa	16a	16A	16A	16aa	16aa	16A	16A	8gg	8g	8gg	8g
16gg	.	16gg	16gg	16g	16G	16G	16gg	16gg	16G	16G	.	.	.	.
16ff#	8r	16ff#	16ff#	16f#	16F#	16F#	16ff#	16ff#	16F#	16F#	8r	8r	8r	8r
16ee	.	16ee	16ee	16e	16E	16E	16ee	16ee	16E	16E	.	.	.	.
=56	=56	=56	=56	=56	=56	=56	=56	=56	=56	=56	=56	=56	=56	=56
8dd	8D	8dd	8dd	8d	8D	8D	8dd	8dd	8D	8D	8gg	8g	8gg	8g
8r	8r	8r	8r	8r	8r	8r	8r	8r	8r	8r	8r	8r	8r	8r
8a	8AA	8cc# 8e	8cc# 8e	8A 8e	8G	8G	8a	8a	8AA	8AA	8dd	8g	8dd	8g
8a	8r	8r	8r	8r	8r	8r	8a	8a	8AA	8AA	8r	8r	8r	8r
=57	=57	=57	=57	=57	=57	=57	=57	=57	=57	=57	=57	=57	=57	=57
8aa	8D	8dd 8f#	8f# 8dd	8f# 8A	8F#	8F#	8aa	8aa	8A	8A	8ee	8cc	8ee	8cc
8aa	8r	8r	8r	8r	8r	8r	8aa	8aa	8A	8A	8r	8r	8r	8r
16aa	8AA	8a 8ee	8ee 8a	8g 8A	8C#	8C#	16aa	16aa	16A	16A	8dd	8g	8dd	8g
16gg	.	.	.	.	.	.	16gg	16gg	16G	16G	.	.	.	.
16ff#	8r	8r	8r	8r	8r	8r	16ff#	16ff#	16F#	16F#	8r	8r	8r	8r
16ee	.	.	.	.	.	.	16ee	16ee	16E	16E	.	.	.	.
=58	=58	=58	=58	=58	=58	=58	=58	=58	=58	=58	=58	=58	=58	=58
4dd	4D	8ff# 8d 8a	8d 8ff# 8a	8f# 8A	8D	8D	4dd	4dd	4D	4D	4ee	4cc	4ee	4cc
.	.	8r	4.r	8r	4.r	4.r	.	.	.	.	.	.	.	.
4r	4r	8dd	.	8F#	.	.	4r	4r	8F#	8F#	4r	4r	4r	4r
.	.	8dd	.	8F#	.	.	.	.	8F#	8F#	.	.	.	.
=59	=59	=59	=59	=59	=59	=59	=59	=59	=59	=59	=59	=59	=59	=59
4r	2r	8ddd	4r	8f#	4r	4r	2r	2r	8f#	8f#	2r	2r	2r	2r
.	.	8ddd	.	8f#	.	.	.	.	8f#	8f#	.	.	.	.
8dd	.	16ddd	8d	16f#	8BB	8BB	.	.	16f#	16f#	.	.	.	.
.	.	16ccc#	.	16e	.	.	.	.	16e	16e	.	.	.	.
8dd	.	16bb	8d	16d	8BB	8BB	.	.	16d	16d	.	.	.	.
.	.	16aa	.	16c#	.	.	.	.	16c#	16c#	.	.	.	.
=60	=60	=60	=60	=60	=60	=60	=60	=60	=60	=60	=60	=60	=60	=60
8ddd	2r	8gg#	8dd	8B	8B	8B	4r	4r	8B	8B	2r	2r	2r	2r
8ddd	.	8gg#	8dd	8r	8B	8B	.	.	4.r	4.r	.	.	.	.
16ddd	.	8gg#	16dd	8E	16B	16B	8e	8b	.	.	.	.	.	.
16ccc#	.	.	16cc#	.	16A	16A	.	.	.	.	.	.	.	.
16bb	.	8aa	16b	8E	16G#	16G#	8e	8b	.	.	.	.	.	.
16aa	.	.	16a	.	16F#	16F#	.	.	.	.	.	.	.	.
=61	=61	=61	=61	=61	=61	=61	=61	=61	=61	=61	=61	=61	=61	=61
4gg#	2r	8bb	8g#	8e	8E	8E	8bb	8dd	8r	8r	2r	2r	2r	2r
.	.	8bb	8dd	8e	8r	8r	8bb	8dd	8EE	8EE	.	.	.	.
4r	.	16bb	16dd	16e	8E	8E	16bb	16dd	16E	16E	.	.	.	.
.	.	16aa	16cc#	16f#	.	.	16aa	16cc#	16F#	16F#	.	.	.	.
.	.	16gg#	16b	16g#	8E	8E	16gg#	16b	16G#	16G#	.	.	.	.
.	.	16ff#	16a	16a	.	.	16ff#	16a	16A	16A	.	.	.	.
=62	=62	=62	=62	=62	=62	=62	=62	=62	=62	=62	=62	=62	=62	=62
2r	2r	8ee	8g#	8b	8e	8e	8ee	8g#	8B	8B	2r	2r	2r	2r
.	.	8ee	8g#	8e	8e	8e	8ee	8g#	8E	8E	.	.	.	.
.	.	8ff#	8a	16ee	16e	16e	8ff#	8a	16e	16e	.	.	.	.
.	.	.	.	16dd	16d	16d	.	.	16d	16d	.	.	.	.
.	.	8gg#	8b	16cc#	16c#	16c#	8gg#	8b	16c#	16c#	.	.	.	.
.	.	.	.	16b	16B	16B	.	.	16B	16B	.	.	.	.
=63	=63	=63	=63	=63	=63	=63	=63	=63	=63	=63	=63	=63	=63	=63
4r	2r	8aa	8cc#	4a	4A	4A	4aa	4cc#	4A	4A	2r	2r	2r	2r
.	.	8aa	8cc#	.	.	.	.	.	.	.	.	.	.	.
8a	.	16aa	8A	4r	4r	4r	4r	4r	4r	4r	.	.	.	.
.	.	16gg#	.	.	.	.	.	.	.	.	.	.	.	.
8a	.	16ff#	8A	.	.	.	.	.	.	.	.	.	.	.
.	.	16ee	.	.	.	.	.	.	.	.	.	.	.	.
=64	=64	=64	=64	=64	=64	=64	=64	=64	=64	=64	=64	=64	=64	=64
8aa	2r	8ff#	8a	2r	2r	2r	2r	2r	2r	2r	2r	2r	2r	2r
8aa	.	8ff#	8a	.	.	.	.	.	.	.	.	.	.	.
16aa	.	16ff#	16a	.	.	.	.	.	.	.	.	.	.	.
16gg#	.	16ee	16g#	.	.	.	.	.	.	.	.	.	.	.
16ff#	.	16dd	16f#	.	.	.	.	.	.	.	.	.	.	.
16ee	.	16cc#	16e	.	.	.	.	.	.	.	.	.	.	.
=65	=65	=65	=65	=65	=65	=65	=65	=65	=65	=65	=65	=65	=65	=65
8ff#	2r	8dd	8f#	2r	4r	4r	4r	4r	4r	4r	2r	2r	2r	2r
8ff#	.	8dd	8f#	.	.	.	.	.	.	.	.	.	.	.
16ff#	.	16dd	16f#	.	8BB	8BB	8dd	8ff#	8BB	8BB	.	.	.	.
16ee	.	16cc#	16e	.	.	.	.	.	.	.	.	.	.	.
16dd	.	16b	16d	.	8BB	8BB	8dd	8ff#	8BB	8BB	.	.	.	.
16cc#	.	16a	16c#	.	.	.	.	.	.	.	.	.	.	.
=66	=66	=66	=66	=66	=66	=66	=66	=66	=66	=66	=66	=66	=66	=66
4b	2r	8g#	8B	[2E	8d	8d	[2bb	[2gg#	8d	8d	4dd	4dd	4dd	4dd
.	.	8b	8b	.	8d	8d	.	.	8d	8d	.	.	.	.
8b	.	16b	16b	.	16d	16d	.	.	16d	16d	4r	4r	4r	4r
.	.	16a	16a	.	16c#	16c#	.	.	16c#	16c#	.	.	.	.
8b	.	16g#	16g#	.	16B	16B	.	.	16B	16B	.	.	.	.
.	.	16f#	16f#	.	16A	16A	.	.	16A	16A	.	.	.	.
=67	=67	=67	=67	=67	=67	=67	=67	=67	=67	=67	=67	=67	=67	=67
[2ddd	2r	8e	8e	2E_	8G#	8G#	2bb_	2gg#_	8G#	8G#	4dd	4dd	4dd	4dd
.	.	8dd	8dd	.	8B	8B	.	.	8B	8B	.	.	.	.
.	.	16dd	16dd	.	16B	16B	.	.	16B	16B	4r	4r	4r	4r
.	.	16cc#	16cc#	.	16A	16A	.	.	16A	16A	.	.	.	.
.	.	16b	16b	.	16G#	16G#	.	.	16G#	16G#	.	.	.	.
.	.	16a	16a	.	16F#	16F#	.	.	16F#	16F#	.	.	.	.
=68	=68	=68	=68	=68	=68	=68	=68	=68	=68	=68	=68	=68	=68	=68
2ddd_	2r	8g#	8g#	2E_	8E	8E	2bb_	2gg#_	8E	8E	4dd	4dd	4dd	4dd
.	.	8b	8b	.	8d	8d	.	.	8d	8d	.	.	.	.
.	.	16b	16b	.	16d	16d	.	.	16d	16d	4r	4r	4r	4r
.	.	16a	16a	.	16c#	16c#	.	.	16c#	16c#	.	.	.	.
.	.	16g#	16g#	.	16B	16B	.	.	16B	16B	.	.	.	.
.	.	16f#	16f#	.	16A	16A	.	.	16A	16A	.	.	.	.
=69	=69	=69	=69	=69	=69	=69	=69	=69	=69	=69	=69	=69	=69	=69
2ddd]	2r	8e	8e	2E]	8G#	8G#	4bb]	4gg#]	8G#	8G#	4dd	4dd	4dd	4dd
.	.	8b	8b	.	8d	8d	.	.	8d	8d	.	.	.	.
.	.	16b	16b	.	16d	16d	16bb	16bb	16d	16d	4r	4r	4r	4r
.	.	16a	16a	.	16c#	16c#	16aa	16aa	16c#	16c#	.	.	.	.
.	.	16g#	16g#	.	16B	16B	16gg#	16gg#	16B	16B	.	.	.	.
.	.	16f#	16f#	.	16A	16A	16ff#	16ff#	16A	16A	.	.	.	.
=70	=70	=70	=70	=70	=70	=70	=70	=70	=70	=70	=70	=70	=70	=70
4.ddd	2r	4.e	4.e	4.E	4.G#	4.G#	4.ee	4.ee	4.G#	4.G#	4dd	4dd	4dd	4dd
.	.	.	.	.	.	.	.	.	.	.	4r	4r	4r	4r
8ccc	.	16d#	16c	8A	8A	8A	8dd#	8cc	8A	8A	.	.	.	.
.	.	16d#	16c	.	.	.	.	.	.	.	.	.	.	.
=71	=71	=71	=71	=71	=71	=71	=71	=71	=71	=71	=71	=71	=71	=71
8bb	2r	16e	16B	8G#	8G#	8G#	8ee	8b	8G#	8G#	2r	2r	2r	2r
.	.	16e	16B	.	.	.	.	.	.	.	.	.	.	.
8ccc	.	16d#	16c	8A	8A	8A	8dd#	8cc	8A	8A	.	.	.	.
.	.	16d#	16c	.	.	.	.	.	.	.	.	.	.	.
8bb	.	16e	16B	8G#	8G#	8G#	8ee	8b	8G#	8G#	.	.	.	.
.	.	16e	16B	.	.	.	.	.	.	.	.	.	.	.
8ccc	.	16d#	16c	8A	8A	8A	8dd#	8cc	8A	8A	.	.	.	.
.	.	16d#	16c	.	.	.	.	.	.	.	.	.	.	.
=72	=72	=72	=72	=72	=72	=72	=72	=72	=72	=72	=72	=72	=72	=72
4.bb	2r	4.e	4.B	4.G#	4.G#	4.G#	4.ee	4.b	4.G#	4.G#	4dd	4dd	4dd	4dd
.	.	.	.	.	.	.	.	.	.	.	4r	4r	4r	4r
8ccc	.	16d#	16c	8A	8A	8A	8dd#	8cc	8A	8A	.	.	.	.
.	.	16d#	16c	.	.	.	.	.	.	.	.	.	.	.
=73	=73	=73	=73	=73	=73	=73	=73	=73	=73	=73	=73	=73	=73	=73
8bb	2r	16e	16B	8G#	8G#	8G#	8ee	8b	8G#	8G#	2r	2r	2r	2r
.	.	16e	16B	.	.	.	.	.	.	.	.	.	.	.
8ccc	.	16d#	16c	8A	8A	8A	8dd#	8cc	8A	8A	.	.	.	.
.	.	16d#	16c	.	.	.	.	.	.	.	.	.	.	.
8bb	.	16e	16B	8G#	8G#	8G#	8ee	8b	8G#	8G#	.	.	.	.
.	.	16e	16B	.	.	.	.	.	.	.	.	.	.	.
8ccc	.	16d#	16c	8A	8A	8A	8dd#	8cc	8A	8A	.	.	.	.
.	.	16d#	16c	.	.	.	.	.	.	.	.	.	.	.
=74	=74	=74	=74	=74	=74	=74	=74	=74	=74	=74	=74	=74	=74	=74
[2bb	2r	16e	16B 16e	8G#	8G#	8G#	[2ee	2b	8G#	8G#	[2dd	[2dd	[2dd	[2dd
.	.	16e	16B 16e	.	.	.	.	.	.	.	.	.	.	.
.	.	16e	16e 16B	8E	8G#	8G#	.	.	8G#	8G#	.	.	.	.
.	.	16e	16e 16B	.	.	.	.	.	.	.	.	.	.	.
.	.	16b	16e 16B	8E	8G#	8G#	.	.	8G#	8G#	.	.	.	.
.	.	16b	16B 16e	.	.	.	.	.	.	.	.	.	.	.
.	.	16b	16e 16B	8E	8G#	8G#	.	.	8G#	8G#	.	.	.	.
.	.	16b	16B 16e	.	.	.	.	.	.	.	.	.	.	.
=75	=75	=75	=75	=75	=75	=75	=75	=75	=75	=75	=75	=75	=75	=75
2bb_	2r	16dd	16e 16B	8E	8G#	8G#	2ee_	[2dd	8G#	8G#	2dd_	2dd_	2dd_	2dd_
.	.	16dd	16e 16B	.	.	.	.	.	.	.	.	.	.	.
.	.	16dd	16e 16B	8E	8G#	8G#	.	.	8G#	8G#	.	.	.	.
.	.	16dd	16e 16B	.	.	.	.	.	.	.	.	.	.	.
.	.	16b	16e 16B	8E	8G#	8G#	.	.	8G#	8G#	.	.	.	.
.	.	16b	16e 16B	.	.	.	.	.	.	.	.	.	.	.
.	.	16b	16e 16B	8E	8G#	8G#	.	.	8G#	8G#	.	.	.	.
.	.	16b	16e 16B	.	.	.	.	.	.	.	.	.	.	.
=76	=76	=76	=76	=76	=76	=76	=76	=76	=76	=76	=76	=76	=76	=76
2bb_	2r	16gg#	16dd	8E	8G#	8G#	2ee_	2dd_	8G#	8G#	2dd_	2dd_	2dd_	2dd_
.	.	16gg#	16dd	.	.	.	.	.	.	.	.	.	.	.
.	.	16gg#	16dd	8E	8G#	8G#	.	.	8G#	8G#	.	.	.	.
.	.	16gg#	16dd	.	.	.	.	.	.	.	.	.	.	.
.	.	16ee	16b	8E	8G#	8G#	.	.	8G#	8G#	.	.	.	.
.	.	16ee	16b	.	.	.	.	.	.	.	.	.	.	.
.	.	16ee	16b	8E	8G#	8G#	.	.	8G#	8G#	.	.	.	.
.	.	16ee	16b	.	.	.	.	.	.	.	.	.	.	.
=77	=77	=77	=77	=77	=77	=77	=77	=77	=77	=77	=77	=77	=77	=77
2bb]	2r	16bb	16dd	8E	8G#	8G#	2ee]	2dd]	8G#	8G#	2dd]	2dd]	2dd]	2dd]
.	.	16bb	16dd	.	.	.	.	.	.	.	.	.	.	.
.	.	16bb	16dd	8E	8G#	8G#	.	.	8G#	8G#	.	.	.	.
.	.	16bb	16dd	.	.	.	.	.	.	.	.	.	.	.
.	.	16gg#	16b	8E	8G#	8G#	.	.	8G#	8G#	.	.	.	.
.	.	16gg#	16b	.	.	.	.	.	.	.	.	.	.	.
.	.	16gg#	16b	8E	8G#	8G#	.	.	8G#	8G#	.	.	.	.
.	.	16gg#	16b	.	.	.	.	.	.	.	.	.	.	.
=78	=78	=78	=78	=78	=78	=78	=78	=78	=78	=78	=78	=78	=78	=78
8bb	2r	16ddd	8b 8e	8E	8G#	8G#	8ee	8dd	8G#	8G#	8dd	8dd	8dd	8dd
.	.	16ddd	.	.	.	.	.	.	.	.	.	.	.	.
8bb	.	16ddd	8b 8e	8E	8G#	8G#	8ee	8dd	8G#	8G#	8dd	8dd	8dd	8dd
.	.	16ddd	.	.	.	.	.	.	.	.	.	.	.	.
4r	.	16ee	4r	4r	4r	4r	4r	4r	4r	4r	4r	4r	4r	4r
.	.	16ee	.	.	.	.	.	.	.	.	.	.	.	.
.	.	16ee	.	.	.	.	.	.	.	.	.	.	.	.
.	.	16ee	.	.	.	.	.	.	.	.	.	.	.	.
=79	=79	=79	=79	=79	=79	=79	=79	=79	=79	=79	=79	=79	=79	=79
8bb	2r	16ddd	8e 8b	8E	8G#	8G#	8ee	8dd	8G#	8G#	8dd	8dd	8dd	8dd
.	.	16ddd	.	.	.	.	.	.	.	.	.	.	.	.
8bb	.	16ddd	8b 8e	8E	8G#	8G#	8ee	8dd	8G#	8G#	8dd	8dd	8dd	8dd
.	.	16ddd	.	.	.	.	.	.	.	.	.	.	.	.
4r	.	16ee	4r	4r	4r	4r	4r	4r	4r	4r	4r	4r	4r	4r
.	.	16ee	.	.	.	.	.	.	.	.	.	.	.	.
.	.	16ee	.	.	.	.	.	.	.	.	.	.	.	.
.	.	16ee	.	.	.	.	.	.	.	.	.	.	.	.
=80	=80	=80	=80	=80	=80	=80	=80	=80	=80	=80	=80	=80	=80	=80
8bb	2r	16ddd	8e 8b	8E	8G#	8G#	8ee	8dd	8G#	8G#	8dd	8dd	8dd	8dd
.	.	16ddd	.	.	.	.	.	.	.	.	.	.	.	.
8bb	.	16ddd	8b 8e	8E	8G#	8G#	8ee	8dd	8G#	8G#	8dd	8dd	8dd	8dd
.	.	16ddd	.	.	.	.	.	.	.	.	.	.	.	.
4r	.	16ee	4r	4r	4r	4r	4r	4r	4r	4r	4r	4r	4r	4r
.	.	16ee	.	.	.	.	.	.	.	.	.	.	.	.
.	.	16ee	.	.	.	.	.	.	.	.	.	.	.	.
.	.	16ee	.	.	.	.	.	.	.	.	.	.	.	.
=81	=81	=81	=81	=81	=81	=81	=81	=81	=81	=81	=81	=81	=81	=81
2r	2r	8ddd	2r	2r	2r	2r	2r	2r	2r	2r	2r	2r	2r	2r
.	.	8ddd	.	.	.	.	.	.	.	.	.	.	.	.
.	.	8ee	.	.	.	.	.	.	.	.	.	.	.	.
.	.	8ee	.	.	.	.	.	.	.	.	.	.	.	.
=82	=82	=82	=82	=82	=82	=82	=82	=82	=82	=82	=82	=82	=82	=82
2r	2r	8ddd	2r	2r	2r	2r	2r	2r	2r	2r	2r	2r	2r	2r
.	.	8ddd	.	.	.	.	.	.	.	.	.	.	.	.
.	.	8ee	.	.	.	.	.	.	.	.	.	.	.	.
.	.	8ee	.	.	.	.	.	.	.	.	.	.	.	.
=83	=83	=83	=83	=83	=83	=83	=83	=83	=83	=83	=83	=83	=83	=83
4r	2r	8ddd	2r	2r	2r	2r	2r	2r	2r	2r	2r	2r	2r	2r
.	.	8ddd	.	.	.	.	.	.	.	.	.	.	.	.
8ee	.	8ee	.	.	.	.	.	.	.	.	.	.	.	.
8ee	.	8ee	.	.	.	.	.	.	.	.	.	.	.	.
=84	=84	=84	=84	=84	=84	=84	=84	=84	=84	=84	=84	=84	=84	=84
4ccc#	2r	4ccc#	8cc#	8a	2r	2r	2r	2r	2r	2r	2r	2r	2r	2r
.	.	.	8r	8r	.	.	.	.	.	.	.	.	.	.
16bb	.	16bb	8dd	8a	.	.	.	.	.	.	.	.	.	.
16aa	.	16aa	.	.	.	.	.	.	.	.	.	.	.	.
16gg#	.	16gg#	8r	8r	.	.	.	.	.	.	.	.	.	.
16ff#	.	16ff#	.	.	.	.	.	.	.	.	.	.	.	.
=85	=85	=85	=85	=85	=85	=85	=85	=85	=85	=85	=85	=85	=85	=85
4.ee	2r	4.ee	4.cc#	4.a	2r	2r	2r	2r	2r	2r	2r	2r	2r	2r
8dd#	.	8dd#	8b#	8a	.	.	.	.	.	.	.	.	.	.
=86	=86	=86	=86	=86	=86	=86	=86	=86	=86	=86	=86	=86	=86	=86
8ee	2r	8ee	8cc#	8a	2r	2r	2r	2r	2r	2r	2r	2r	2r	2r
8dd#	.	8dd#	8b#	8a	.	.	.	.	.	.	.	.	.	.
8ee	.	8ee	8cc#	8a	.	.	.	.	.	.	.	.	.	.
8ff#	.	8ff#	8dd	8a	.	.	.	.	.	.	.	.	.	.
=87	=87	=87	=87	=87	=87	=87	=87	=87	=87	=87	=87	=87	=87	=87
4.ee	2r	4.ee	[2cc#	4a	2r	2r	2r	2r	2r	2r	2r	2r	2r	2r
.	.	.	.	4e	.	.	.	.	.	.	.	.	.	.
8cc#	.	8cc#	.	.	.	.	.	.	.	.	.	.	.	.
=88	=88	=88	=88	=88	=88	=88	=88	=88	=88	=88	=88	=88	=88	=88
2dd	2r	2dd	4cc#]	8f#	2r	2r	2r	2r	2r	2r	2r	2r	2r	2r
.	.	.	.	8e	.	.	.	.	.	.	.	.	.	.
.	.	.	[4b	8f#	.	.	.	.	.	.	.	.	.	.
.	.	.	.	8g#	.	.	.	.	.	.	.	.	.	.
=89	=89	=89	=89	=89	=89	=89	=89	=89	=89	=89	=89	=89	=89	=89
2cc#	2r	2cc#	4b]	8e	2r	2r	2r	2r	2r	2r	2r	2r	2r	2r
.	.	.	.	8d	.	.	.	.	.	.	.	.	.	.
.	.	.	4a	8e	.	.	.	.	.	.	.	.	.	.
.	.	.	.	8f#	.	.	.	.	.	.	.	.	.	.
=90	=90	=90	=90	=90	=90	=90	=90	=90	=90	=90	=90	=90	=90	=90
[2b	2r	[2b	2a	8d	2r	2r	2r	2r	2r	2r	2r	2r	2r	2r
.	.	.	.	8c#	.	.	.	.	.	.	.	.	.	.
.	.	.	.	8d	.	.	.	.	.	.	.	.	.	.
.	.	.	.	8d#	.	.	.	.	.	.	.	.	.	.
=91	=91	=91	=91	=91	=91	=91	=91	=91	=91	=91	=91	=91	=91	=91
8b]	2r	8b]	8g#	4e	4.r	4.r	2r	2r	2r	2r	2r	2r	2r	2r
8a	.	8a	8f#	.	.	.	.	.	.	.	.	.	.	.
8b	.	8b	8g#	4r	.	.	.	.	.	.	.	.	.	.
8cc	.	8cc	8a	.	8D#	8D#	.	.	.	.	.	.	.	.
=92	=92	=92	=92	=92	=92	=92	=92	=92	=92	=92	=92	=92	=92	=92
4b	2r	4b	4g#	2r	8E	8E	2r	2r	2r	2r	2r	2r	2r	2r
.	.	.	.	.	8D#	8D#	.	.	.	.	.	.	.	.
8r	.	8r	8r	.	8E	8E	.	.	.	.	.	.	.	.
8dd#	.	8dd#	8a	.	8F	8F	.	.	.	.	.	.	.	.
=93	=93	=93	=93	=93	=93	=93	=93	=93	=93	=93	=93	=93	=93	=93
4ee	2r	4ee	4g#	2r	8E	8E	2r	2r	2r	2r	2r	2r	2r	2r
.	.	.	.	.	8D#	8D#	.	.	.	.	.	.	.	.
8r	.	8r	8r	.	8E	8E	.	.	.	.	.	.	.	.
8aa	.	8aa	8dd#	.	8F	8F	.	.	.	.	.	.	.	.
=94	=94	=94	=94	=94	=94	=94	=94	=94	=94	=94	=94	=94	=94	=94
4gg#	2r	4gg#	4ee	2r	8E	8E	2r	2r	2r	2r	2r	2r	2r	2r
.	.	.	.	.	8D#	8D#	.	.	.	.	.	.	.	.
8r	.	8r	8r	.	8E	8E	.	.	.	.	.	.	.	.
8ddd#	.	8ddd#	8aa	.	8F	8F	.	.	.	.	.	.	.	.
=95	=95	=95	=95	=95	=95	=95	=95	=95	=95	=95	=95	=95	=95	=95
4eee	2r	4eee	4gg#	4.r	8E	8E	4.r	4.r	4.r	4.r	2r	2r	2r	2r
.	.	.	.	.	8D#	8D#	.	.	.	.	.	.	.	.
8r	.	8r	8r	.	8E	8E	.	.	.	.	.	.	.	.
8dd#	.	8d#	8d#	8d#	8D#	8D#	8dd#	8dd#	8d#	8d#	.	.	.	.
=96	=96	=96	=96	=96	=96	=96	=96	=96	=96	=96	=96	=96	=96	=96
8ee	2r	8e	8e	8e	8E	8E	8ee	8ee	8e	8e	2r	2r	2r	2r
8dd#	.	8d#	8d#	8d#	8D#	8D#	8dd#	8dd#	8d#	8d#	.	.	.	.
8ee	.	8e	8e	8e	8E	8E	8ee	8ee	8e	8e	.	.	.	.
8ff#	.	8f#	8f#	8f#	8F#	8F#	8ff#	8ff#	8f#	8f#	.	.	.	.
=97	=97	=97	=97	=97	=97	=97	=97	=97	=97	=97	=97	=97	=97	=97
8dd	2r	8d	8d	8d	8D	8D	8dd	8dd	8d	8d	2r	2r	2r	2r
8cc#	.	8c#	8c#	8c#	8C#	8C#	8cc#	8cc#	8c#	8c#	.	.	.	.
8dd	.	8d	8d	8d	8D	8D	8dd	8dd	8d	8d	.	.	.	.
8ee	.	8e	8e	8e	8E	8E	8ee	8ee	8e	8e	.	.	.	.
=98	=98	=98	=98	=98	=98	=98	=98	=98	=98	=98	=98	=98	=98	=98
2cc#	4AA	8c#	8c#	8c#	8C#	8C#	2cc#	2cc#	2c#	2c#	[2dd	[2g	[2gg	[2g
.	.	8e	4a 4e	8a	8C#	8C#	.	.	.	.	.	.	.	.
.	8AA	8a	.	8e	8C#	8C#	.	.	.	.	.	.	.	.
.	8AA	8cc#	[8e 8a	8c#	8C#	8C#	.	.	.	.	.	.	.	.
=99	=99	=99	=99	=99	=99	=99	=99	=99	=99	=99	=99	=99	=99	=99
2ee	4AA	8ee	8e 8a]	8A	8C#	8C#	2ee	[2ee	2A	2A	2dd_	2g]	2gg]	2g]
.	.	8aa	4e 4a	8ee	8C#	8C#	.	.	.	.	.	.	.	.
.	4r	8ccc#	.	8cc#	8C#	8C#	.	.	.	.	.	.	.	.
.	.	8eee	8a 8e	8a	8C#	8C#	.	.	.	.	.	.	.	.
=100	=100	=100	=100	=100	=100	=100	=100	=100	=100	=100	=100	=100	=100	=100
[2ddd	2r	8ddd	8b 8e	2dd	8GG#	8GG#	[2bb	2ee_	[2G#	[2G#	2dd_	[2dd	[2dd	[2dd
.	.	16ddd	4b 4e	.	8GG#	8GG#	.	.	.	.	.	.	.	.
.	.	16ccc#	.	.	.	.	.	.	.	.	.	.	.	.
.	.	8bb	.	.	8GG#	8GG#	.	.	.	.	.	.	.	.
.	.	16bb	8b 8e	.	8GG#	8GG#	.	.	.	.	.	.	.	.
.	.	16aa	.	.	.	.	.	.	.	.	.	.	.	.
=101	=101	=101	=101	=101	=101	=101	=101	=101	=101	=101	=101	=101	=101	=101
2ddd]	2r	8gg#	8dd 8e	2b	8GG#	8GG#	2bb]	2ee]	2G#]	2G#]	2dd]	2dd]	2dd]	2dd]
.	.	16gg#	4dd 4e	.	8GG#	8GG#	.	.	.	.	.	.	.	.
.	.	16ff#	.	.	.	.	.	.	.	.	.	.	.	.
.	.	8ee	.	.	8GG#	8GG#	.	.	.	.	.	.	.	.
.	.	16ee	8dd 8e	.	8GG#	8GG#	.	.	.	.	.	.	.	.
.	.	16dd	.	.	.	.	.	.	.	.	.	.	.	.
=102	=102	=102	=102	=102	=102	=102	=102	=102	=102	=102	=102	=102	=102	=102
[2ccc#	4AA	8cc#	8e 8cc#	8cc#	8AA	8AA	[2aa	[2ee	[2A	[2A	[2gg	[2G	[2gg	[2g
.	.	8e	4e 4cc#	8a	8AA	8AA	.	.	.	.	.	.	.	.
.	8AA	8a	.	8e	8AA	8AA	.	.	.	.	.	.	.	.
.	8AA	8cc#	[8cc# 8e	8c#	8AA	8AA	.	.	.	.	.	.	.	.
=103	=103	=103	=103	=103	=103	=103	=103	=103	=103	=103	=103	=103	=103	=103
2ccc#]	4AA	8ee	8cc# 8e]	8A	8AA	8AA	2aa]	2ee]	2A]	2A]	2gg]	2G]	2gg]	2g]
.	.	8aa	4cc# 4e	8ee	8AA	8AA	.	.	.	.	.	.	.	.
.	4r	8ccc#	.	8cc#	8AA	8AA	.	.	.	.	.	.	.	.
.	.	8eee	8cc# 8e	8a	8AA	8AA	.	.	.	.	.	.	.	.
=104	=104	=104	=104	=104	=104	=104	=104	=104	=104	=104	=104	=104	=104	=104
[2ddd	2r	8ddd	8e 8b	2dd	8GG#	8GG#	[2bb	[2ee	[2G#	[2G#	[2dd	[2dd	[2dd	[2dd
.	.	16ddd	4b 4e	.	8GG#	8GG#	.	.	.	.	.	.	.	.
.	.	16ccc#	.	.	.	.	.	.	.	.	.	.	.	.
.	.	8bb	.	.	8GG#	8GG#	.	.	.	.	.	.	.	.
.	.	16bb	8e 8b	.	8GG#	8GG#	.	.	.	.	.	.	.	.
.	.	16aa	.	.	.	.	.	.	.	.	.	.	.	.
=105	=105	=105	=105	=105	=105	=105	=105	=105	=105	=105	=105	=105	=105	=105
2ddd]	2r	8gg#	8e 8dd	2b	8GG#	8GG#	2bb]	2ee]	2G#]	2G#]	2dd]	2dd]	2dd]	2dd]
.	.	16gg#	4dd 4e	.	8GG#	8GG#	.	.	.	.	.	.	.	.
.	.	16ff#	.	.	.	.	.	.	.	.	.	.	.	.
.	.	8ee	.	.	8GG#	8GG#	.	.	.	.	.	.	.	.
.	.	16ee	8dd 8e	.	8GG#	8GG#	.	.	.	.	.	.	.	.
.	.	16dd	.	.	.	.	.	.	.	.	.	.	.	.
=106	=106	=106	=106	=106	=106	=106	=106	=106	=106	=106	=106	=106	=106	=106
2ccc#	4AA	8cc#	8e 8cc#	8a	8AA	8AA	[2aa	[2ee	[2A	[2A	[2gg	[2G	[2gg	[2g
.	.	8e	4e 4cc#	8ee	8AA	8AA	.	.	.	.	.	.	.	.
.	8AA	8a	.	8cc#	8AA	8AA	.	.	.	.	.	.	.	.
.	8AA	8cc#	[8cc# 8e	8a	8AA	8AA	.	.	.	.	.	.	.	.
=107	=107	=107	=107	=107	=107	=107	=107	=107	=107	=107	=107	=107	=107	=107
2eee	8AA	8ee	8cc# 8e]	4e	8AA	8AA	2aa_	2ee]	2A]	2A]	2gg]	2G]	2gg]	2g]
.	8AA	8aa	4e 4cc#	.	8AA	8AA	.	.	.	.	.	.	.	.
.	8AA	8ccc#	.	4r	8AA	8AA	.	.	.	.	.	.	.	.
.	8AA	8eee	8cc# 8e	.	8AA	8AA	.	.	.	.	.	.	.	.
=108	=108	=108	=108	=108	=108	=108	=108	=108	=108	=108	=108	=108	=108	=108
[2ddd	4D	8d	8f# 8b	8r	8D	8D	2aa]	[2ff#	[2D	[2D	[2ee	[2cc	[2ee	[2cc
.	.	8f#	4f# 4b	8b	8D	8D	.	.	.	.	.	.	.	.
.	8D	8a#	.	8f#	8D	8D	.	.	.	.	.	.	.	.
.	8D	8b	[8f# 8b	8d	8D	8D	.	.	.	.	.	.	.	.
=109	=109	=109	=109	=109	=109	=109	=109	=109	=109	=109	=109	=109	=109	=109
2ddd]	4D	8dd	8f# 8b]	4B	8D	8D	2ddd	2ff#]	2D]	2D]	2ee]	2cc]	2ee]	2cc]
.	.	8ff#	4f# 4b	.	8D	8D	.	.	.	.	.	.	.	.
.	4r	8bb	.	4r	8D	8D	.	.	.	.	.	.	.	.
.	.	8ddd	8f# 8b	.	8D	8D	.	.	.	.	.	.	.	.
=110	=110	=110	=110	=110	=110	=110	=110	=110	=110	=110	=110	=110	=110	=110
2ccc#	2r	8ccc#	8cc# 8a	8r	8E	8E	2ccc#	2aa	[2E	[2E	[2dd	[2dd	[2dd	[2dd
.	.	8eee	4cc# 4a	8e	8E	8E	.	.	.	.	.	.	.	.
.	.	8ccc#	.	8a	8E	8E	.	.	.	.	.	.	.	.
.	.	8aa	8cc# 8a	8cc#	8E	8E	.	.	.	.	.	.	.	.
=111	=111	=111	=111	=111	=111	=111	=111	=111	=111	=111	=111	=111	=111	=111
2bb	2r	8ee	8b 8g#	4ee	8E	8E	2bb	2gg#	2E]	2E]	2dd_	2dd]	2dd_	2dd]
.	.	8dd	4b 4g#	.	8E	8E	.	.	.	.	.	.	.	.
.	.	8b	.	4e	8E	8E	.	.	.	.	.	.	.	.
.	.	8g#	8b 8g#	.	8E	8E	.	.	.	.	.	.	.	.
=112	=112	=112	=112	=112	=112	=112	=112	=112	=112	=112	=112	=112	=112	=112
[2eee	8AA	16ee	16ee 16a	8c#	8C#	8C#	[2aa	[2ee	8C#	8C#	2dd_	[2g	2dd_	[2g
.	.	16eee	16a 16ee	.	.	.	.	.	.	.	.	.	.	.
.	16AA	16eee	16a 16ee	8e	8E	8E	.	.	8E	8E	.	.	.	.
.	16AA	16eee	16ee 16a	.	.	.	.	.	.	.	.	.	.	.
.	8AA	16eee	16a 16ee	8g#	8G#	8G#	.	.	8G#	8G#	.	.	.	.
.	.	16eee	16ee 16a	.	.	.	.	.	.	.	.	.	.	.
.	8AA	16eee	16a 16ee	8a	8A	8A	.	.	8A	8A	.	.	.	.
.	.	16eee	16a 16ee	.	.	.	.	.	.	.	.	.	.	.
=113	=113	=113	=113	=113	=113	=113	=113	=113	=113	=113	=113	=113	=113	=113
2eee_	4AA	16eee	16ee 16a	8cc#	8c#	8c#	2aa_	2ee]	8c#	8c#	2dd]	2g]	2dd]	2g]
.	.	16eee	16ee 16a	.	.	.	.	.	.	.	.	.	.	.
.	.	16eee	16ee 16a	8ee	8e	8e	.	.	8e	8e	.	.	.	.
.	.	16eee	16ee 16a	.	.	.	.	.	.	.	.	.	.	.
.	8AA	16eee	16ee 16a	8cc#	8c#	8c#	.	.	8c#	8c#	.	.	.	.
.	.	16eee	16ee 16a	.	.	.	.	.	.	.	.	.	.	.
.	8AA	16eee	16ee 16a	8a	8A	8A	.	.	8A	8A	.	.	.	.
.	.	16eee	16ee 16a	.	.	.	.	.	.	.	.	.	.	.
=114	=114	=114	=114	=114	=114	=114	=114	=114	=114	=114	=114	=114	=114	=114
2eee]	4D	16eee	16ff#	8d	8D	8D	2aa]	[2ff#	8D	8D	[2ee	[2cc	[2ee	[2cc
.	.	16eee	16ff#	.	.	.	.	.	.	.	.	.	.	.
.	.	16eee	16ff#	8f#	8F#	8F#	.	.	8F#	8F#	.	.	.	.
.	.	16eee	16ff#	.	.	.	.	.	.	.	.	.	.	.
.	4r	16eee	16ff#	8g#	8G#	8G#	.	.	8G#	8G#	.	.	.	.
.	.	16eee	16ff#	.	.	.	.	.	.	.	.	.	.	.
.	.	16eee	16ff#	8a#	8A#	8A#	.	.	8A#	8A#	.	.	.	.
.	.	16eee	16ff#	.	.	.	.	.	.	.	.	.	.	.
=115	=115	=115	=115	=115	=115	=115	=115	=115	=115	=115	=115	=115	=115	=115
2ddd	2r	16ddd	16ff#	8b	8B	8B	2ddd	2ff#]	8B	8B	2ee]	2cc]	2ee]	2cc]
.	.	16ddd	16ff#	.	.	.	.	.	.	.	.	.	.	.
.	.	16ddd	16ff#	8cc#	8c#	8c#	.	.	8c#	8c#	.	.	.	.
.	.	16ddd	16ff#	.	.	.	.	.	.	.	.	.	.	.
.	.	16ddd	16ff#	8dd	8d	8d	.	.	8d	8d	.	.	.	.
.	.	16ddd	16ff#	.	.	.	.	.	.	.	.	.	.	.
.	.	16ddd	16ff#	8b	8B	8B	.	.	8B	8B	.	.	.	.
.	.	16ddd	16ff#	.	.	.	.	.	.	.	.	.	.	.
=116	=116	=116	=116	=116	=116	=116	=116	=116	=116	=116	=116	=116	=116	=116
4ccc#	2r	4ccc#	4ee	4ee	4e	4e	4ccc#	4aa	4e	4e	4dd	4dd	4dd	4dd
4r	.	4r	4r	4r	4r	4r	4r	4r	4r	4r	4r	4r	4r	4r
=117	=117	=117	=117	=117	=117	=117	=117	=117	=117	=117	=117	=117	=117	=117
4bb	2r	4gg# 4b	4dd 4e	4e	4E	4E	4bb	4gg#	4EE	4EE	4dd	4dd	4dd	4dd
4r	.	4r	4r	4r	4r	4r	4r	4r	4r	4r	4r	4r	4r	4r
=118	=118	=118	=118	=118	=118	=118	=118	=118	=118	=118	=118	=118	=118	=118
2r	2r	8c#	8A	4A	4AA	4AA	[2ee	2r	[2e	2r	2r	2r	2r	2r
.	.	8e	8c#	.	.	.	.	.	.	.	.	.	.	.
.	.	8c#	8A	4r	4r	4r	.	.	.	.	.	.	.	.
.	.	8e	8c#	.	.	.	.	.	.	.	.	.	.	.
=119	=119	=119	=119	=119	=119	=119	=119	=119	=119	=119	=119	=119	=119	=119
2r	2r	8c#	8A	2r	2r	2r	4ee]	2r	4e]	2r	2r	2r	2r	2r
.	.	8e	8c#	.	.	.	.	.	.	.	.	.	.	.
.	.	8c#	8A	.	.	.	8ff#	.	8f#	.	.	.	.	.
.	.	8e	8c#	.	.	.	8ee	.	8e	.	.	.	.	.
=120	=120	=120	=120	=120	=120	=120	=120	=120	=120	=120	=120	=120	=120	=120
2r	2r	8d	8B	4E	4E	4E	8ee	2r	8e	2r	2r	2r	2r	2r
.	.	8e	8d	.	.	.	8g#	.	8G#	.	.	.	.	.
.	.	8d	8B	4r	4r	4r	[4g#	.	[4G#	.	.	.	.	.
.	.	8e	8d	.	.	.	.	.	.	.	.	.	.	.
=121	=121	=121	=121	=121	=121	=121	=121	=121	=121	=121	=121	=121	=121	=121
2r	2r	8d	8B	2r	2r	2r	4g#]	2r	4G#]	2r	2r	2r	2r	2r
.	.	8e	8d	.	.	.	.	.	.	.	.	.	.	.
.	.	8d	8B	.	.	.	4g#	.	4G#	.	.	.	.	.
.	.	8e	8d	.	.	.	.	.	.	.	.	.	.	.
=122	=122	=122	=122	=122	=122	=122	=122	=122	=122	=122	=122	=122	=122	=122
2r	2r	8r	8r	8c#	8C#	8C#	8b	2r	8B	2r	2r	2r	2r	2r
.	.	8e	8A	8r	8r	8r	8a	.	8A	.	.	.	.	.
.	.	8r	8r	8G#	8GG#	8GG#	8cc#	.	8c#	.	.	.	.	.
.	.	8e	8B	8r	8r	8r	8b	.	8B	.	.	.	.	.
=123	=123	=123	=123	=123	=123	=123	=123	=123	=123	=123	=123	=123	=123	=123
2r	2r	8r	8r	8A	8AA	8AA	8dd	2r	8d	2r	2r	2r	2r	2r
.	.	8e	8c#	8r	8r	8r	8cc#	.	8c#	.	.	.	.	.
.	.	8r	8r	8D	8D	8D	8ee	.	8e	.	.	.	.	.
.	.	8d	8B	8r	8r	8r	8dd	.	8d	.	.	.	.	.
=124	=124	=124	=124	=124	=124	=124	=124	=124	=124	=124	=124	=124	=124	=124
2r	2r	8r	8r	4E	4E	4E	4.cc#	2r	4.c#	2r	2r	2r	2r	2r
.	.	8c#	8A	.	.	.	.	.	.	.	.	.	.	.
.	.	8e	8c#	4r	4r	4r	.	.	.	.	.	.	.	.
.	.	8c#	8A	.	.	.	16dd	.	16d	.	.	.	.	.
.	.	.	.	.	.	.	16cc#	.	16c#	.	.	.	.	.
=125	=125	=125	=125	=125	=125	=125	=125	=125	=125	=125	=125	=125	=125	=125
2r	2r	4B	8G#	2r	2r	2r	8b	2r	8B	2r	2r	2r	2r	2r
.	.	.	8A	.	.	.	8cc#	.	8c#	.	.	.	.	.
.	.	4r	8B	.	.	.	8dd	.	8d	.	.	.	.	.
.	.	.	8B	.	.	.	8dd#	.	8d#	.	.	.	.	.
=126	=126	=126	=126	=126	=126	=126	=126	=126	=126	=126	=126	=126	=126	=126
2r	2r	8c#	8A	4A	4AA	4AA	[2ee	2r	[2e	2r	2r	2r	2r	2r
.	.	8e	8c#	.	.	.	.	.	.	.	.	.	.	.
.	.	8c#	8A	4r	4r	4r	.	.	.	.	.	.	.	.
.	.	8e	8c#	.	.	.	.	.	.	.	.	.	.	.
=127	=127	=127	=127	=127	=127	=127	=127	=127	=127	=127	=127	=127	=127	=127
2r	2r	8c#	8A	2r	2r	2r	4ee]	2r	4e]	2r	2r	2r	2r	2r
.	.	8e	8c#	.	.	.	.	.	.	.	.	.	.	.
.	.	8c#	8A	.	.	.	8ff#	.	8f#	.	.	.	.	.
.	.	8e	8c#	.	.	.	8ee	.	8e	.	.	.	.	.
=128	=128	=128	=128	=128	=128	=128	=128	=128	=128	=128	=128	=128	=128	=128
2r	2r	8d	8B	4E	4E	4E	8ee	2r	8e	2r	2r	2r	2r	2r
.	.	8e	8d	.	.	.	8g#	.	8G#	.	.	.	.	.
.	.	8d	8B	4r	4r	4r	[4g#	.	[4G#	.	.	.	.	.
.	.	8e	8d	.	.	.	.	.	.	.	.	.	.	.
=129	=129	=129	=129	=129	=129	=129	=129	=129	=129	=129	=129	=129	=129	=129
2r	2r	8d	8B	2r	2r	2r	4g#]	2r	4G#]	2r	2r	2r	2r	2r
.	.	8e	8d	.	.	.	.	.	.	.	.	.	.	.
.	.	8d	8B	.	.	.	4g#	.	4G#	.	.	.	.	.
.	.	8e	8d	.	.	.	.	.	.	.	.	.	.	.
=130	=130	=130	=130	=130	=130	=130	=130	=130	=130	=130	=130	=130	=130	=130
2r	2r	8r	8r	2r	8C#	8C#	8b	2r	8B	2r	2r	2r	2r	2r
.	.	8e	8c#	.	8r	8r	8a	.	8A	.	.	.	.	.
.	.	8r	8r	.	8D	8D	8cc#	.	8c#	.	.	.	.	.
.	.	8d	8B	.	8r	8r	8b	.	8B	.	.	.	.	.
=131	=131	=131	=131	=131	=131	=131	=131	=131	=131	=131	=131	=131	=131	=131
2r	2r	8r	8r	2r	8E	8E	8dd	4.r	8d	4.r	2r	2r	2r	2r
.	.	8c#	8A	.	8r	8r	8cc#	.	8c#	.	.	.	.	.
.	.	8B	8G#	.	8E	8E	8ee	.	8e	.	.	.	.	.
.	.	8g#	8g#	.	8r	8r	8g#	8g#	8G#	8G#	.	.	.	.
=132	=132	=132	=132	=132	=132	=132	=132	=132	=132	=132	=132	=132	=132	=132
2r	4AA	8b	8b	8b	8B	8B	8b	8b	8B	8B	4gg	4g	4gg	4g
.	.	8a	8a	8a	8A	8A	8a	8a	8A	8A	.	.	.	.
.	4r	8cc#	8cc#	8cc#	8c#	8c#	4r	8cc#	8c#	8c#	4r	4r	4r	4r
.	.	8b	8b	8b	8B	8B	.	8b	8B	8B	.	.	.	.
=133	=133	=133	=133	=133	=133	=133	=133	=133	=133	=133	=133	=133	=133	=133
4.r	2r	8dd	8dd	8dd	8d	8d	4.r	8dd	8d	8d	4r	4r	4r	4r
.	.	8cc#	8cc#	8cc#	8c#	8c#	.	8cc#	8c#	8c#	.	.	.	.
.	.	8ee	8ee	8ee	8e	8e	.	8ee	8e	8e	4dd	4dd	4dd	4dd
8gg#	.	8g#	8g#	8g#	8G#	8G#	8g#	8g#	8G#	8G#	.	.	.	.
=134	=134	=134	=134	=134	=134	=134	=134	=134	=134	=134	=134	=134	=134	=134
8bb	4AA	8b	8b	8b	8B	8B	8b	8b	8B	8B	4gg	4g	4gg	4g
8aa	.	8a	8a	8a	8A	8A	8a	8a	8A	8A	.	.	.	.
8ccc#	4r	8cc#	8cc#	8cc#	8c#	8c#	8cc#	8cc#	8c#	8c#	4r	4r	4r	4r
8bb	.	8b	8b	8b	8B	8B	8b	8b	8B	8B	.	.	.	.
=135	=135	=135	=135	=135	=135	=135	=135	=135	=135	=135	=135	=135	=135	=135
8ddd	2r	8dd	8dd	8dd	8d	8d	8dd	8dd	8d	8d	2r	2r	2r	2r
8ccc#	.	8cc#	8cc#	8cc#	8c#	8c#	8cc#	8cc#	8c#	8c#	.	.	.	.
8eee	.	8ee	8ee	8ee	8e	8e	8ee	8ee	8e	8e	.	.	.	.
8gg	.	8g	8g	8g	8G	8G	8g	8g	8G	8G	.	.	.	.
=136	=136	=136	=136	=136	=136	=136	=136	=136	=136	=136	=136	=136	=136	=136
8ff#	2r	8f#	8f#	8f#	8F#	8F#	8f#	8f#	8F#	8F#	2r	2r	2r	2r
8gg	.	8g	8g	8g	8G	8G	8g	8g	8G	8G	.	.	.	.
8ff#	.	8f#	8f#	8f#	8F#	8F#	8f#	8f#	8F#	8F#	.	.	.	.
8gg	.	8gg	8gg	8g	8G	8G	8gg	8gg	8G	8G	.	.	.	.
=137	=137	=137	=137	=137	=137	=137	=137	=137	=137	=137	=137	=137	=137	=137
8ff#	2r	8ff#	8ff#	8f#	8F#	8F#	8ff#	8ff#	8F#	8F#	2r	2r	2r	2r
8ee	.	8ee	8ee	8e	8E	8E	8ee	8ee	8E	8E	.	.	.	.
8dd	.	8dd	8dd	8d	8D	8D	8dd	8dd	8D	8D	.	.	.	.
8cc#	.	8cc#	8cc#	8c#	8C#	8C#	8cc#	8cc#	8C#	8C#	.	.	.	.
=138	=138	=138	=138	=138	=138	=138	=138	=138	=138	=138	=138	=138	=138	=138
2b	2r	8dd	4dd	4B	4BB	4BB	8dd	[2b	4BB	4BB	2r	2r	2r	2r
.	.	8cc#	.	.	.	.	8cc#	.	.	.	.	.	.	.
.	.	8dd	4r	4r	4r	4r	8dd	.	4r	4r	.	.	.	.
.	.	8ee	.	.	.	.	8ee	.	.	.	.	.	.	.
=139	=139	=139	=139	=139	=139	=139	=139	=139	=139	=139	=139	=139	=139	=139
2ddd	2r	8ff#	2dd	[2b	2r	2r	8ff#	2b_	2r	2r	2r	2r	2r	2r
.	.	8ee	.	.	.	.	8ee	.	.	.	.	.	.	.
.	.	8ff#	.	.	.	.	8ff#	.	.	.	.	.	.	.
.	.	8gg	.	.	.	.	8gg	.	.	.	.	.	.	.
=140	=140	=140	=140	=140	=140	=140	=140	=140	=140	=140	=140	=140	=140	=140
2ccc#	2r	8ee	2cc#	4b]	2r	2r	8ee	4b]	2r	2r	2r	2r	2r	2r
.	.	8dd	.	.	.	.	8dd	.	.	.	.	.	.	.
.	.	8ee	.	[4a	.	.	8ee	[4a	.	.	.	.	.	.
.	.	8ff#	.	.	.	.	8ff#	.	.	.	.	.	.	.
=141	=141	=141	=141	=141	=141	=141	=141	=141	=141	=141	=141	=141	=141	=141
2bb	2r	8dd	2b	4a]	4.r	4.r	8dd	4a]	4.r	4.r	2r	2r	2r	2r
.	.	8cc#	.	.	.	.	8cc#	.	.	.	.	.	.	.
.	.	8dd	.	8g	.	.	8dd	8g	.	.	.	.	.	.
.	.	8ee	.	8f#	8E	8E	8ee	8f#	8E	8E	.	.	.	.
=142	=142	=142	=142	=142	=142	=142	=142	=142	=142	=142	=142	=142	=142	=142
4gg	2r	4cc#	4g	4e	8A	8A	4cc#	4e	8A	8A	2r	2r	2r	2r
.	.	.	.	.	8G	8G	.	.	8G	8G	.	.	.	.
4ff#	.	[4dd	4f#	8d	8A	8A	[4dd	4r	8A	8A	.	.	.	.
.	.	.	.	8b	8B	8B	.	.	8B	8B	.	.	.	.
=143	=143	=143	=143	=143	=143	=143	=143	=143	=143	=143	=143	=143	=143	=143
4ee	2r	4dd]	2e	4b	8G	8G	4dd]	2ee	8G	8G	2r	2r	2r	2r
.	.	.	.	.	8F#	8F#	.	.	8F#	8F#	.	.	.	.
[4ccc#	.	[4cc#	.	[4a	8G	8G	[4cc#	.	8G	8G	.	.	.	.
.	.	.	.	.	8A	8A	.	.	8A	8A	.	.	.	.
=144	=144	=144	=144	=144	=144	=144	=144	=144	=144	=144	=144	=144	=144	=144
4ccc#]	2r	4cc#]	2d	4a]	8F#	8F#	4cc#]	2dd	8F#	8F#	2r	2r	2r	2r
.	.	.	.	.	8E	8E	.	.	8E	8E	.	.	.	.
[4bb	.	[4b	.	[4g	8F#	8F#	[4b	.	8F#	8F#	.	.	.	.
.	.	.	.	.	8G	8G	.	.	8G	8G	.	.	.	.
=145	=145	=145	=145	=145	=145	=145	=145	=145	=145	=145	=145	=145	=145	=145
4bb]	2r	4b]	2c#	4g]	8E	8E	4b]	2cc#	8E	8E	2r	2r	2r	2r
.	.	.	.	.	8D	8D	.	.	8D	8D	.	.	.	.
4aa#	.	4a#	.	8f#	8E	8E	4a#	.	8E	8E	.	.	.	.
.	.	.	.	8e	8F#	8F#	.	.	8F#	8F#	.	.	.	.
=146	=146	=146	=146	=146	=146	=146	=146	=146	=146	=146	=146	=146	=146	=146
8bb	2r	8b	8f#	8d	8D	8D	8b	8ff#	8D	8D	2r	2r	2r	2r
8aa#	.	8a#	8g	8e	8E	8E	8a#	8gg	8E	8E	.	.	.	.
8bb	.	8b	8f#	8d	8D	8D	8b	8ff#	8D	8D	.	.	.	.
8ccc#	.	8cc#	8e	8c#	8C#	8C#	8cc#	8cc#	8C#	8C#	.	.	.	.
=147	=147	=147	=147	=147	=147	=147	=147	=147	=147	=147	=147	=147	=147	=147
2ddd	2r	2dd	8f#	4B	2BB	2BB	2dd	8ff#	2BB	2BB	2r	2r	2r	2r
.	.	.	8e#	.	.	.	.	8ee#	.	.	.	.	.	.
.	.	.	8f#	4r	.	.	.	8ff#	.	.	.	.	.	.
.	.	.	8g#	.	.	.	.	8gg#	.	.	.	.	.	.
=148	=148	=148	=148	=148	=148	=148	=148	=148	=148	=148	=148	=148	=148	=148
8ccc#	2r	8cc#	4.e#	4.g#	2B	2B	8cc#	4.ee#	2B	2B	2r	2r	2r	2r
8bb#	.	8b#	.	.	.	.	8b#	.	.	.	.	.	.	.
8ccc#	.	8cc#	.	.	.	.	8cc#	.	.	.	.	.	.	.
8ee#	.	8ee#	8g#	8e#	.	.	8ee#	8ee#	.	.	.	.	.	.
=149	=149	=149	=149	=149	=149	=149	=149	=149	=149	=149	=149	=149	=149	=149
8ff#	2r	8ff#	4.cc#	4c#	4.A	4.A	8ff#	4.cc#	4.A	4.A	[2gg	[2ee	2r	2r
8ee#	.	8ee#	.	.	.	.	8ee#	.	.	.	.	.	.	.
8ff#	.	8ff#	.	8a	.	.	8ff#	.	.	.	.	.	.	.
8gg#	.	8gg#	8b	8g#	8G#	8G#	8gg#	8b	8G#	8G#	.	.	.	.
=150	=150	=150	=150	=150	=150	=150	=150	=150	=150	=150	=150	=150	=150	=150
8aa	2r	8aa	4.a	4.f#	4.F#	4.F#	8aa	4.a	4.F#	4.F#	2gg_	2ee_	2r	2r
8ee#	.	8ee#	.	.	.	.	8ee#	.	.	.	.	.	.	.
8ff#	.	8ff#	.	.	.	.	8ff#	.	.	.	.	.	.	.
8gg#	.	8gg#	8g#	8e	8E	8E	8gg#	8g#	8E	8E	.	.	.	.
=151	=151	=151	=151	=151	=151	=151	=151	=151	=151	=151	=151	=151	=151	=151
8aa	2r	8aa	4.f#	4.d	4.D	4.D	8aa	4.f#	4.D	4.D	2gg_	2ee_	2r	2r
8ee#	.	8ee#	.	.	.	.	8ee#	.	.	.	.	.	.	.
8ff#	.	8ff#	.	.	.	.	8ff#	.	.	.	.	.	.	.
8gg#	.	8gg#	8e	8c#	8C#	8C#	8gg#	8e	8C#	8C#	.	.	.	.
=152	=152	=152	=152	=152	=152	=152	=152	=152	=152	=152	=152	=152	=152	=152
8aa	2r	8aa	[2d#	[2B#	[2BB#	[2BB#	8aa	2d#	[2BB#	[2BB#	4gg]	4ee]	2r	2r
8gg#	.	8gg#	.	.	.	.	8gg#	.	.	.	.	.	.	.
8ff#	.	8ff#	.	.	.	.	8ff#	.	.	.	4r	4r	.	.
8gg#	.	8gg#	.	.	.	.	8gg#	.	.	.	.	.	.	.
=153	=153	=153	=153	=153	=153	=153	=153	=153	=153	=153	=153	=153	=153	=153
8aa	2r	8aa	2d#]	2B#]	2BB#]	2BB#]	8aa	2dd#	2BB#]	2BB#]	2r	2r	2r	2r
8gg#	.	8gg#	.	.	.	.	8gg#	.	.	.	.	.	.	.
8aa	.	8aa	.	.	.	.	8aa	.	.	.	.	.	.	.
8ff#	.	8ff#	.	.	.	.	8ff#	.	.	.	.	.	.	.
=154	=154	=154	=154	=154	=154	=154	=154	=154	=154	=154	=154	=154	=154	=154
4ccc#	2r	4ccc#	4c#	4c#	4C#	4C#	4ee#	4cc#	4C#	4C#	2r	2r	2r	2r
8cc#	.	8cc#	8r	8r	4r	4r	8r	8r	8C#	8C#	.	.	.	.
8cc#	.	8cc#	8g#	8e#	.	.	8gg#	8ee#	8C#	8C#	.	.	.	.
=155	=155	=155	=155	=155	=155	=155	=155	=155	=155	=155	=155	=155	=155	=155
4ccc#	2r	4ccc#	8a	8f#	2r	2r	8aa	8ff#	4c#	4c#	2r	2r	2r	2r
.	.	.	8g#	8e#	.	.	8gg#	8ee#	.	.	.	.	.	.
8cc#	.	8cc#	8a	8f#	.	.	8aa	8ff#	8C#	8C#	.	.	.	.
8cc#	.	8cc#	8b	8g#	.	.	8bb	8gg#	8C#	8C#	.	.	.	.
=156	=156	=156	=156	=156	=156	=156	=156	=156	=156	=156	=156	=156	=156	=156
4ccc#	2r	4ccc#	4g#	4e#	4C#	4C#	4gg#	4ee#	4c#	4c#	2r	2r	2r	2r
8cc#	.	8cc#	8r	8r	4r	4r	8r	8r	8C#	8C#	.	.	.	.
8cc#	.	8cc#	8g#	8e#	.	.	8gg#	8ee#	8C#	8C#	.	.	.	.
=157	=157	=157	=157	=157	=157	=157	=157	=157	=157	=157	=157	=157	=157	=157
4ccc#	2r	4ccc#	8a	8f#	2r	2r	8aa	8ff#	4c#	4c#	2r	2r	2r	2r
.	.	.	8g#	8e#	.	.	8gg#	8ee#	.	.	.	.	.	.
8cc#	.	8cc#	8a	8f#	.	.	8aa	8ff#	8C#	8C#	.	.	.	.
8cc#	.	8cc#	8b	8g#	.	.	8bb	8gg#	8C#	8C#	.	.	.	.
=158	=158	=158	=158	=158	=158	=158	=158	=158	=158	=158	=158	=158	=158	=158
4.ccc#	2r	4ccc#	4g#	4e#	4c#	4c#	4gg#	4ee#	4c#	4c#	2r	2r	2r	2r
.	.	8r	8r	8c#	8C#	8C#	8cc#	8cc#	8r	8r	.	.	.	.
8gg#	.	8gg#	8ee#	8c#	8C#	8C#	8cc#	8cc#	8G#	8E#	.	.	.	.
=159	=159	=159	=159	=159	=159	=159	=159	=159	=159	=159	=159	=159	=159	=159
8aa	2r	8aa	8ff#	4cc#	4c#	4c#	4ccc#	4ccc#	8A	8F#	2r	2r	2r	2r
8gg#	.	8gg#	8ee#	.	.	.	.	.	8G#	8E#	.	.	.	.
8aa	.	8aa	8ff#	8c#	8C#	8C#	8cc#	8cc#	8A	8F#	.	.	.	.
8bb	.	8bb	8gg#	8c#	8C#	8C#	8cc#	8cc#	8B	8G#	.	.	.	.
=160	=160	=160	=160	=160	=160	=160	=160	=160	=160	=160	=160	=160	=160	=160
4gg#	2r	4gg#	4ee#	4cc#	4c#	4c#	4ccc#	4ccc#	4G#	4E#	2r	2r	2r	2r
8r	.	8r	8r	8c#	8C#	8C#	8cc#	8cc#	8r	8r	.	.	.	.
8gg#	.	8gg#	8ee#	8c#	8C#	8C#	8cc#	8cc#	8G#	8E#	.	.	.	.
=161	=161	=161	=161	=161	=161	=161	=161	=161	=161	=161	=161	=161	=161	=161
8aa	2r	8aa	8ff#	4cc#	4c#	4c#	4ccc#	4ccc#	8A	8F#	2r	2r	2r	2r
8gg#	.	8gg#	8ee#	.	.	.	.	.	8G#	8E#	.	.	.	.
8aa	.	8aa	8ff#	8c#	8C#	8C#	8cc#	8cc#	8A	8F#	.	.	.	.
8bb	.	8bb	8gg#	8c#	8C#	8C#	8cc#	8cc#	8B	8G#	.	.	.	.
=162	=162	=162	=162	=162	=162	=162	=162	=162	=162	=162	=162	=162	=162	=162
4gg#	2r	4gg#	4ee#	4cc#	4c#	4c#	4ccc#	4ccc#	4G#	4E#	2r	2r	2r	2r
8cc#	.	8c#	8c#	8c#	8C#	8C#	8cc#	8cc#	8C#	8C#	.	.	.	.
8cc#	.	8c#	8c#	8c#	8C#	8C#	8cc#	8cc#	8C#	8C#	.	.	.	.
=163	=163	=163	=163	=163	=163	=163	=163	=163	=163	=163	=163	=163	=163	=163
4ccc#	2r	4cc#	4cc#	4cc#	4c#	4c#	4ccc#	4ccc#	4c#	4c#	2r	2r	2r	2r
8cc#	.	8c#	8c#	8c#	8C#	8C#	8cc#	8cc#	8C#	8C#	.	.	.	.
8cc#	.	8c#	8c#	8c#	8C#	8C#	8cc#	8cc#	8C#	8C#	.	.	.	.
=164	=164	=164	=164	=164	=164	=164	=164	=164	=164	=164	=164	=164	=164	=164
4ccc#	2r	4cc#	4cc#	4cc#	4c#	4c#	4ccc#	4ccc#	4c#	4c#	2r	2r	2r	2r
4r	.	4r	4r	4r	4r	4r	4r	4r	4r	4r	.	.	.	.
=165	=165	=165	=165	=165	=165	=165	=165	=165	=165	=165	=165	=165	=165	=165
2r	2r	2r	2r	2r	4r	2r	2r	2r	2r	2r	2r	2r	2r	2r
.	.	.	.	.	8CC#	.	.	.	.	.	.	.	.	.
.	.	.	.	.	8CC#	.	.	.	.	.	.	.	.	.
=166	=166	=166	=166	=166	=166	=166	=166	=166	=166	=166	=166	=166	=166	=166
2r	2r	2r	2r	2r	4C#	2r	2r	2r	2r	2r	2r	2r	2r	2r
.	.	.	.	.	4r	.	.	.	.	.	.	.	.	.
=167	=167	=167	=167	=167	=167	=167	=167	=167	=167	=167	=167	=167	=167	=167
2r	2r	2r	2r	2r	4r	2r	2r	2r	2r	2r	2r	2r	2r	2r
.	.	.	.	.	8CC#	.	.	.	.	.	.	.	.	.
.	.	.	.	.	8CC#	.	.	.	.	.	.	.	.	.
=168	=168	=168	=168	=168	=168	=168	=168	=168	=168	=168	=168	=168	=168	=168
2r	2r	2r	2r	2r	4C#	2r	2r	2r	2r	2r	2r	2r	2r	2r
.	.	.	.	.	4r	.	.	.	.	.	.	.	.	.
=169	=169	=169	=169	=169	=169	=169	=169	=169	=169	=169	=169	=169	=169	=169
4r	4r	4r	4r	4r	4r	4r	4r	4r	4r	4r	4r	4r	4r	4r
8dd	8D	8dd	8d	8D	8DD	8D	8dd	8dd	8D	8D	8cc	8cc	8cc	8cc
8dd	8D	8dd	8d	8D	8DD	8D	8dd	8dd	8D	8D	8cc	8cc	8cc	8cc
=170	=170	=170	=170	=170	=170	=170	=170	=170	=170	=170	=170	=170	=170	=170
4ddd	4D	4ddd	4dd	4d	4D	4d	4ddd	4ddd	4d	4d	4cc	4cc	4cc	4cc
4r	4r	4r	4r	4r	4r	4r	4r	4r	4r	4r	4r	4r	4r	4r
=171	=171	=171	=171	=171	=171	=171	=171	=171	=171	=171	=171	=171	=171	=171
2r	2r	4r	2r	2r	2r	2r	2r	2r	2r	2r	2r	2r	2r	2r
.	.	8a	.	.	.	.	.	.	.	.	.	.	.	.
.	.	8a	.	.	.	.	.	.	.	.	.	.	.	.
=172	=172	=172	=172	=172	=172	=172	=172	=172	=172	=172	=172	=172	=172	=172
2r	2r	4ff#	8f#	8d	8d	8d	2r	2r	2r	2r	2r	2r	2r	2r
.	.	.	8r	8r	8r	8r	.	.	.	.	.	.	.	.
.	.	16ee	8g	8d	8d	8d	.	.	.	.	.	.	.	.
.	.	16dd	.	.	.	.	.	.	.	.	.	.	.	.
.	.	16cc#	8r	8r	8r	8r	.	.	.	.	.	.	.	.
.	.	16b	.	.	.	.	.	.	.	.	.	.	.	.
=173	=173	=173	=173	=173	=173	=173	=173	=173	=173	=173	=173	=173	=173	=173
2r	2r	4.a	4.f#	4.d	4.d	4.d	2r	2r	2r	2r	2r	2r	2r	2r
.	.	8g#	8e#	8d	8d	8d	.	.	.	.	.	.	.	.
=174	=174	=174	=174	=174	=174	=174	=174	=174	=174	=174	=174	=174	=174	=174
2r	2r	8a	8f#	8d	8d	8d	2r	2r	2r	2r	2r	2r	2r	2r
.	.	8g#	8e#	8d	8d	8d	.	.	.	.	.	.	.	.
.	.	8a	8f#	8d	8d	8d	.	.	.	.	.	.	.	.
.	.	8b	8g	8d	8d	8d	.	.	.	.	.	.	.	.
=175	=175	=175	=175	=175	=175	=175	=175	=175	=175	=175	=175	=175	=175	=175
2r	2r	4a	4f#	4d	4d	4d	2r	2r	2r	2r	2r	2r	2r	2r
.	.	8d	4r	4r	4r	4r	.	.	.	.	.	.	.	.
.	.	8d	.	.	.	.	.	.	.	.	.	.	.	.
=176	=176	=176	=176	=176	=176	=176	=176	=176	=176	=176	=176	=176	=176	=176
2r	2r	4g	2c#	2A#	2A#	2A#	2r	2r	2r	2r	2r	2r	2r	2r
.	.	16f#	.	.	.	.	.	.	.	.	.	.	.	.
.	.	16e	.	.	.	.	.	.	.	.	.	.	.	.
.	.	16d	.	.	.	.	.	.	.	.	.	.	.	.
.	.	16c#	.	.	.	.	.	.	.	.	.	.	.	.
=177	=177	=177	=177	=177	=177	=177	=177	=177	=177	=177	=177	=177	=177	=177
2r	2r	4.d	4.d	4.B	4.B	4.B	2r	2r	2r	2r	2r	2r	2r	2r
.	.	8d#	8c	8F#	8A	8A	.	.	.	.	.	.	.	.
=178	=178	=178	=178	=178	=178	=178	=178	=178	=178	=178	=178	=178	=178	=178
2r	2r	8e	8B	8G	8G	8G	2r	2r	2r	2r	2r	2r	2r	2r
.	.	8f#	8A	8A	8D#	8D#	.	.	.	.	.	.	.	.
.	.	8g	8G	8B	8E	8E	.	.	.	.	.	.	.	.
.	.	8b	8e	8B	8GG	8GG	.	.	.	.	.	.	.	.
=179	=179	=179	=179	=179	=179	=179	=179	=179	=179	=179	=179	=179	=179	=179
2r	2r	8f#	8d	4A	4AA	4AA	2r	2r	4r	2r	2r	2r	2r	2r
.	.	8e	8c#	.	.	.	.	.	.	.	.	.	.	.
.	.	8a	4r	4r	4r	4r	.	.	8A	.	.	.	.	.
.	.	8a	.	.	.	.	.	.	8A	.	.	.	.	.
=180	=180	=180	=180	=180	=180	=180	=180	=180	=180	=180	=180	=180	=180	=180
2r	2r	4ff#	8f#	8d	8d	8d	2r	2r	4f#	2r	2r	2r	2r	2r
.	.	.	8r	8r	8r	8r	.	.	.	.	.	.	.	.
.	.	16ee	8g	8d	8d	8d	.	.	16e	.	.	.	.	.
.	.	16dd	.	.	.	.	.	.	16d	.	.	.	.	.
.	.	16cc#	8r	8r	8r	8r	.	.	16c#	.	.	.	.	.
.	.	16b	.	.	.	.	.	.	16B	.	.	.	.	.
=181	=181	=181	=181	=181	=181	=181	=181	=181	=181	=181	=181	=181	=181	=181
2r	2r	4.a	4.f#	4.d	4.d	4.d	2r	2r	4.A	2r	2r	2r	2r	2r
.	.	8g#	8e#	8d	8d	8d	.	.	8G#	.	.	.	.	.
=182	=182	=182	=182	=182	=182	=182	=182	=182	=182	=182	=182	=182	=182	=182
2r	2r	8a	8f#	8d	8d	8d	2r	2r	8A	2r	2r	2r	2r	2r
.	.	8g#	8e#	8d	8d	8d	.	.	8G#	.	.	.	.	.
.	.	8a	8f#	8d	8d	8d	.	.	8A	.	.	.	.	.
.	.	8b	8g	8d	8d	8d	.	.	8B	.	.	.	.	.
=183	=183	=183	=183	=183	=183	=183	=183	=183	=183	=183	=183	=183	=183	=183
2r	2r	4a	4f#	4d	4d	4d	2r	2r	4A	2r	2r	2r	2r	2r
.	.	8d	4r	4r	4r	4r	.	.	8D	.	.	.	.	.
.	.	8d	.	.	.	.	.	.	8D	.	.	.	.	.
=184	=184	=184	=184	=184	=184	=184	=184	=184	=184	=184	=184	=184	=184	=184
2r	2r	4g	2d	2G	2BB-	2BB-	2r	2r	4G	2r	2r	2r	2r	2r
.	.	8e	.	.	.	.	.	.	8E	.	.	.	.	.
.	.	8e	.	.	.	.	.	.	8E	.	.	.	.	.
=185	=185	=185	=185	=185	=185	=185	=185	=185	=185	=185	=185	=185	=185	=185
2r	2r	4cc#	2c# 2e	2A	4AA	4AA	4r	2r	4c#	4r	2r	2r	2r	2r
.	.	8a	.	.	4GG	4GG	8a	.	8A	8A	.	.	.	.
.	.	8a	.	.	.	.	8a	.	8A	8A	.	.	.	.
=186	=186	=186	=186	=186	=186	=186	=186	=186	=186	=186	=186	=186	=186	=186
4r	2r	8aa	4d	4F#	4FF#	4FF#	8aa	2r	4f#	4f#	2r	2r	2r	2r
.	.	8aa	.	.	.	.	8aa	.	.	.	.	.	.	.
8aa	.	16aa	8a	4r	8F#	8F#	16aa	.	8F#	8F#	.	.	.	.
.	.	16gg	.	.	.	.	16gg	.	.	.	.	.	.	.
8aa	.	16ff#	8a	.	8F#	8F#	16ff#	.	8F#	8F#	.	.	.	.
.	.	16ee	.	.	.	.	16ee	.	.	.	.	.	.	.
=187	=187	=187	=187	=187	=187	=187	=187	=187	=187	=187	=187	=187	=187	=187
8ddd	2r	4dd	8dd	4r	8B	8B	4dd	4r	8B	8B	2r	2r	2r	2r
8ddd	.	.	8dd	.	8B	8B	.	.	8B	8B	.	.	.	.
16ddd	.	8dd	16dd	8f#	16B	16B	8dd	8f#	16B	16B	.	.	.	.
16ccc#	.	.	16cc#	.	16A	16A	.	.	16A	16A	.	.	.	.
16bb	.	8dd	16b	8f#	16G	16G	8dd	8f#	16G	16G	.	.	.	.
16aa	.	.	16a	.	16F#	16F#	.	.	16F#	16F#	.	.	.	.
=188	=188	=188	=188	=188	=188	=188	=188	=188	=188	=188	=188	=188	=188	=188
4gg	2r	8gg	4g	8b	4E	4E	8gg	8b	4E	4E	2r	2r	2r	2r
.	.	8gg	.	8b	.	.	8gg	8b	.	.	.	.	.	.
8gg	.	16gg	8g	16b	8E	8E	16gg	16b	8E	8E	.	.	.	.
.	.	16ff#	.	16a	.	.	16ff#	16a	.	.	.	.	.	.
8gg	.	16ee	8g	16g	8E	8E	16ee	16g	8E	8E	.	.	.	.
.	.	16dd	.	16f#	.	.	16dd	16f#	.	.	.	.	.	.
=189	=189	=189	=189	=189	=189	=189	=189	=189	=189	=189	=189	=189	=189	=189
8ccc#	4r	4cc#	8cc#	4e	8A	8A	4cc#	4e	8A	8A	4r	4r	4r	4r
8ccc#	.	.	8cc#	.	8A	8A	.	.	8A	8A	.	.	.	.
16ccc#	8AA	8cc#	16cc#	8e	16A	16A	8cc#	8e	16A	16A	8dd	8g	8dd	8g
16bb	.	.	16b	.	16G	16G	.	.	16G	16G	.	.	.	.
16aa	8AA	8cc#	16a	8e	16F#	16F#	8cc#	8e	16F#	16F#	8dd	8g	8dd	8g
16gg	.	.	16g	.	16E	16E	.	.	16E	16E	.	.	.	.
=190	=190	=190	=190	=190	=190	=190	=190	=190	=190	=190	=190	=190	=190	=190
4ff#	4D	8ff#	4f#	8a	4D	4D	8ff#	8a	4D	4D	4ee	4cc	4ee	4cc
.	.	8ff#	.	8a	.	.	8ff#	8a	.	.	.	.	.	.
8ff#	8D	16ff#	8f#	16a	8D	8D	16ff#	16a	8D	8D	8ee	8cc	8ee	8cc
.	.	16ee	.	16g	.	.	16ee	16g	.	.	.	.	.	.
8ff#	8D	16dd	8f#	16f#	8D	8D	16dd	16f#	8D	8D	8ee	8cc	8ee	8cc
.	.	16cc#	.	16e	.	.	16cc#	16e	.	.	.	.	.	.
=191	=191	=191	=191	=191	=191	=191	=191	=191	=191	=191	=191	=191	=191	=191
8bb	4D	8b	8b	4d	4G	4G	8b	4d	4G	4G	4cc	4cc	4cc	4cc
8bb	.	16bb	8b	.	.	.	16bb	.	.	.	.	.	.	.
.	.	16aa	.	.	.	.	16aa	.	.	.	.	.	.	.
16bb	4r	16gg	16b	8d	8G	8G	16gg	16b	8G	8G	4r	4r	4r	4r
16aa	.	16ff#	16a	.	.	.	16ff#	16a	.	.	.	.	.	.
16gg	.	16ee	16g	8d	8G	8G	16ee	16g	8G	8G	.	.	.	.
16ff#	.	16dd	16f#	.	.	.	16dd	16f#	.	.	.	.	.	.
=192	=192	=192	=192	=192	=192	=192	=192	=192	=192	=192	=192	=192	=192	=192
2ee	2r	4cc#	2e	[2A	[2A	[2A	4cc#	2e	2A	2A	2r	2r	2r	2r
.	.	8a	.	.	.	.	8a	.	.	.	.	.	.	.
.	.	8a	.	.	.	.	8a	.	.	.	.	.	.	.
=193	=193	=193	=193	=193	=193	=193	=193	=193	=193	=193	=193	=193	=193	=193
2gg 2ee	2r	4cc#	2g	2A_	2A_	2A_	4cc#	2g	[2AA	[2AA	2r	2r	2r	2r
.	.	8a	.	.	.	.	8a	.	.	.	.	.	.	.
.	.	8a	.	.	.	.	8a	.	.	.	.	.	.	.
=194	=194	=194	=194	=194	=194	=194	=194	=194	=194	=194	=194	=194	=194	=194
2ff# 2dd	2r	4dd	2f#	2A_	2A_	2A_	4dd	2f#	2AA]	2AA]	2r	2r	2r	2r
.	.	8a	.	.	.	.	8a	.	.	.	.	.	.	.
.	.	8a	.	.	.	.	8a	.	.	.	.	.	.	.
=195	=195	=195	=195	=195	=195	=195	=195	=195	=195	=195	=195	=195	=195	=195
2ff 2ddd	2r	4dd	2f	2A]	2A_	2A_	4dd	2f	2A	2A	2r	2r	2r	2r
.	.	8a	.	.	.	.	8a	.	.	.	.	.	.	.
.	.	8a	.	.	.	.	8a	.	.	.	.	.	.	.
=196	=196	=196	=196	=196	=196	=196	=196	=196	=196	=196	=196	=196	=196	=196
2ff 2eee-	2r	2ee-	2cc 2f	2F	2A]	2A]	2ee-	2f	2c	2c	2r	2r	2r	2r
=197	=197	=197	=197	=197	=197	=197	=197	=197	=197	=197	=197	=197	=197	=197
2r	2r	4r	2r	2r	2r	2r	2r	2r	2r	2r	2r	2r	2r	2r
.	.	8cc	.	.	.	.	.	.	.	.	.	.	.	.
.	.	8cc	.	.	.	.	.	.	.	.	.	.	.	.
=198	=198	=198	=198	=198	=198	=198	=198	=198	=198	=198	=198	=198	=198	=198
2r	2r	4ee-	4f	4A	4A	4A	2r	2r	2r	2r	2r	2r	2r	2r
.	.	8cc	4r	4r	4r	4r	.	.	.	.	.	.	.	.
.	.	8cc	.	.	.	.	.	.	.	.	.	.	.	.
=199	=199	=199	=199	=199	=199	=199	=199	=199	=199	=199	=199	=199	=199	=199
2r	2r	4ee-	4f	4A	4A	4A	2r	2r	2r	2r	2r	2r	2r	2r
.	.	8cc	4r	4r	4r	4r	.	.	.	.	.	.	.	.
.	.	8cc	.	.	.	.	.	.	.	.	.	.	.	.
=200	=200	=200	=200	=200	=200	=200	=200	=200	=200	=200	=200	=200	=200	=200
2r	2r	8ee-	8f	8A	8A	8A	2r	2r	2r	2r	2r	2r	2r	2r
.	.	8cc	8r	8r	8r	8r	.	.	.	.	.	.	.	.
.	.	8ee-	8f	8A	8A	8A	.	.	.	.	.	.	.	.
.	.	8cc	8r	8r	8r	8r	.	.	.	.	.	.	.	.
=201	=201	=201	=201	=201	=201	=201	=201	=201	=201	=201	=201	=201	=201	=201
2r	2r	8ee-	8f	8A	8A	8A	2r	2r	4r	2r	2r	2r	2r	2r
.	.	8cc	4.r	4.r	4.r	4.r	.	.	.	.	.	.	.	.
.	.	8f	.	.	.	.	.	.	8F	.	.	.	.	.
.	.	8f	.	.	.	.	.	.	8F	.	.	.	.	.
=202	=202	=202	=202	=202	=202	=202	=202	=202	=202	=202	=202	=202	=202	=202
2r	2r	4dd	8d	8F	8BB-	8BB-	2r	2r	4d	2r	2r	2r	2r	2r
.	.	.	8r	8r	8r	8r	.	.	.	.	.	.	.	.
.	.	16cc	8e-	8G	8BB-	8BB-	.	.	16c	.	.	.	.	.
.	.	16b-	.	.	.	.	.	.	16B-	.	.	.	.	.
.	.	16a	8r	8r	8r	8r	.	.	16A	.	.	.	.	.
.	.	16g	.	.	.	.	.	.	16G	.	.	.	.	.
=203	=203	=203	=203	=203	=203	=203	=203	=203	=203	=203	=203	=203	=203	=203
2r	2r	4.f	4.d	4F	4.BB-	4.BB-	2r	2r	4.F	2r	2r	2r	2r	2r
.	.	.	.	4r	.	.	.	.	.	.	.	.	.	.
.	.	8e	8c#	.	8BB-	8BB-	.	.	8E	.	.	.	.	.
=204	=204	=204	=204	=204	=204	=204	=204	=204	=204	=204	=204	=204	=204	=204
2r	2r	8f	8d	8B-	8BB-	8BB-	2r	2r	8F	2r	2r	2r	2r	2r
.	.	8e	8c#	8B-	8BB-	8BB-	.	.	8E	.	.	.	.	.
.	.	8f	8d	8B-	8BB-	8BB-	.	.	8F	.	.	.	.	.
.	.	8g	8e-	8B-	8BB-	8BB-	.	.	8G	.	.	.	.	.
=205	=205	=205	=205	=205	=205	=205	=205	=205	=205	=205	=205	=205	=205	=205
4r	2r	8f	8d	8B-	8BB-	8BB-	4r	4r	8F	4r	2r	2r	2r	2r
.	.	8r	8r	8r	8r	8r	.	.	8r	.	.	.	.	.
8ff#	.	8f# 8A-	8c	8A-	8AA-	8AA-	8ff#	8cc	8AA-	8AA-	.	.	.	.
8r	.	8r	8r	8r	8r	8r	8r	8r	8r	8r	.	.	.	.
=206	=206	=206	=206	=206	=206	=206	=206	=206	=206	=206	=206	=206	=206	=206
8gg	2r	8g 8G	8B	8G	8GG	8GG	8gg	8b	8GG	8GG	2r	2r	2r	2r
8r	.	8r	8r	8r	8r	8r	8r	8r	8r	8r	.	.	.	.
8bb	.	8bb 8dd	8b 8gg 8d	8G	8GG	8GG	8bb	8dd	8GG	8GG	.	.	.	.
8r	.	8r	8r	8r	8r	8r	8r	8r	8r	8r	.	.	.	.
=207	=207	=207	=207	=207	=207	=207	=207	=207	=207	=207	=207	=207	=207	=207
8ddd	2r	8ddd 8dd	8ff 8dd	8B	8GG	8GG	8ddd	8ff	4GG	4GG	2r	2r	2r	2r
4.r	.	4r	4r	4r	4r	4r	4.r	4.r	.	.	.	.	.	.
.	.	.	.	.	.	.	.	.	8r	4r	.	.	.	.
.	.	8g	8f	8B	8B	8B	.	.	8B	.	.	.	.	.
=208	=208	=208	=208	=208	=208	=208	=208	=208	=208	=208	=208	=208	=208	=208
2r	2r	8g	8e	8c	8c	8c	2r	2r	8c	2r	2r	2r	2r	2r
.	.	8f#	8d#	8c	8c	8c	.	.	8c	.	.	.	.	.
.	.	8g	8e	8c	8c	8c	.	.	8c	.	.	.	.	.
.	.	8a	8f	8c	8c	8c	.	.	8c	.	.	.	.	.
=209	=209	=209	=209	=209	=209	=209	=209	=209	=209	=209	=209	=209	=209	=209
4r	2r	8g	8e	8c	8c	8c	4r	4r	8c	4r	2r	2r	2r	2r
.	.	8r	8r	8r	8r	8r	.	.	8r	.	.	.	.	.
8gg#	.	8g#	8d	8B-	8BB-	8BB-	8gg#	8dd	8BB-	8BB-	.	.	.	.
8r	.	8r	8r	8r	8r	8r	8r	8r	8r	8r	.	.	.	.
=210	=210	=210	=210	=210	=210	=210	=210	=210	=210	=210	=210	=210	=210	=210
8aa	8AA	8a	8c#	8A	8AA	8AA	8aa	8cc#	8AA	8AA	8gg	8g	8gg	8g
8r	8r	8r	8r	8r	8r	8r	8r	8r	8r	8r	8r	8r	8r	8r
8ccc#	8AA	8ccc# 8a	8aa 8a	8A	8AA	8AA	8ee	8cc#	8AA	8AA	8gg	8g	8gg	8g
8r	8r	8r	8r	8r	8r	8r	8r	8r	8r	8r	8r	8r	8r	8r
=211	=211	=211	=211	=211	=211	=211	=211	=211	=211	=211	=211	=211	=211	=211
8eee	4AA	8eee 8a	8a 8gg	4c#	4AA	4AA	8cc#	8cc#	4AA	4AA	4gg	4g	4gg	4g
8r	.	8r	4.r	.	.	.	4.r	4.r	.	.	.	.	.	.
8cc#	4r	8c#	.	4r	4r	4r	.	.	4r	4r	4r	4r	4r	4r
8cc#	.	8c#	.	.	.	.	.	.	.	.	.	.	.	.
=212	=212	=212	=212	=212	=212	=212	=212	=212	=212	=212	=212	=212	=212	=212
4aa	4AA	4a	4a	4e	4AA	4AA	4aa	4ee	4AA	4AA	4gg	4g	4gg	4g
8dd	4r	8d	4r	4r	4r	4r	4r	4r	4r	4r	4r	4r	4r	4r
8dd	.	8d	.	.	.	.	.	.	.	.	.	.	.	.
=213	=213	=213	=213	=213	=213	=213	=213	=213	=213	=213	=213	=213	=213	=213
4bb	4AA	4b	4g#	4d	4AA	4AA	4gg#	4dd	4AA	4AA	4gg	4g	4gg	4g
8ee	4r	8e	4r	4r	4r	4r	4r	4r	4r	4r	4r	4r	4r	4r
8ee	.	8e	.	.	.	.	.	.	.	.	.	.	.	.
=214	=214	=214	=214	=214	=214	=214	=214	=214	=214	=214	=214	=214	=214	=214
4ccc#	4AA	4cc#	4g	4e	4AA	4AA	4gg	4ee	4AA	4AA	4gg	4g	4gg	4g
8ff#	4r	8f#	4r	4r	4r	4r	4r	4r	4r	4r	4r	4r	4r	4r
8ff#	.	8f#	.	.	.	.	.	.	.	.	.	.	.	.
=215	=215	=215	=215	=215	=215	=215	=215	=215	=215	=215	=215	=215	=215	=215
4ddd	4AA	4dd	4f#	4d	4AA	4AA	4ff#	4dd	4AA	4AA	4gg	4g	4gg	4g
4r	4r	4r	4r	4r	4r	4r	4r	4r	4r	4r	4r	4r	4r	4r
=216	=216	=216	=216	=216	=216	=216	=216	=216	=216	=216	=216	=216	=216	=216
2r	2r	4r	2r	2r	2r	2r	2r	2r	2r	2r	2r	2r	2r	2r
.	.	8g	.	.	.	.	.	.	.	.	.	.	.	.
.	.	8g	.	.	.	.	.	.	.	.	.	.	.	.
=217	=217	=217	=217	=217	=217	=217	=217	=217	=217	=217	=217	=217	=217	=217
2r	2r	4ee	4g	4c#	2r	2r	2r	2r	2r	2r	2r	2r	2r	2r
.	.	4r	4r	4r	.	.	.	.	.	.	.	.	.	.
=218	=218	=218	=218	=218	=218	=218	=218	=218	=218	=218	=218	=218	=218	=218
2r	2r	4r	2r	2r	2r	2r	2r	2r	2r	2r	2r	2r	2r	2r
.	.	8g	.	.	.	.	.	.	.	.	.	.	.	.
.	.	8g	.	.	.	.	.	.	.	.	.	.	.	.
=219	=219	=219	=219	=219	=219	=219	=219	=219	=219	=219	=219	=219	=219	=219
2r	2r	4ee	2r	2r	2r	2r	2r	2r	2r	2r	2r	2r	2r	2r
.	.	4r	.	.	.	.	.	.	.	.	.	.	.	.
=220	=220	=220	=220	=220	=220	=220	=220	=220	=220	=220	=220	=220	=220	=220
2r	2r	4r	2r	2r	2r	2r	2r	2r	2r	2r	2r	2r	2r	2r
.	.	8g	.	.	.	.	.	.	.	.	.	.	.	.
.	.	8g	.	.	.	.	.	.	.	.	.	.	.	.
=221	=221	=221	=221	=221	=221	=221	=221	=221	=221	=221	=221	=221	=221	=221
2r	2r	4ee	2r	2r	2r	2r	2r	2r	2r	2r	2r	2r	2r	2r
.	.	8g#	.	.	.	.	.	.	.	.	.	.	.	.
.	.	8g#	.	.	.	.	.	.	.	.	.	.	.	.
=222	=222	=222	=222	=222	=222	=222	=222	=222	=222	=222	=222	=222	=222	=222
2r	2r	4ee	2r	2r	2r	2r	2r	2r	4r	2r	2r	2r	2r	2r
.	.	8a	.	.	.	.	.	.	8A	.	.	.	.	.
.	.	8a	.	.	.	.	.	.	8A	.	.	.	.	.
=223	=223	=223	=223	=223	=223	=223	=223	=223	=223	=223	=223	=223	=223	=223
2r	2r	4ff	[2d	2a	2D	2D	2r	2r	4f	2r	2r	2r	2r	2r
.	.	16ee	.	.	.	.	.	.	16e	.	.	.	.	.
.	.	16dd	.	.	.	.	.	.	16d	.	.	.	.	.
.	.	16cc	.	.	.	.	.	.	16c	.	.	.	.	.
.	.	16b-	.	.	.	.	.	.	16B-	.	.	.	.	.
=224	=224	=224	=224	=224	=224	=224	=224	=224	=224	=224	=224	=224	=224	=224
2r	2r	8a	2d]	2B	2E	2E	2r	2r	8A	2r	2r	2r	2r	2r
.	.	8g#	.	.	.	.	.	.	8G#	.	.	.	.	.
.	.	8g	.	.	.	.	.	.	8G	.	.	.	.	.
.	.	8g	.	.	.	.	.	.	8G	.	.	.	.	.
=225	=225	=225	=225	=225	=225	=225	=225	=225	=225	=225	=225	=225	=225	=225
2r	2r	4ee	2c#	2g	2AA	2AA	2r	2r	4e	2r	2r	2r	2r	2r
.	.	16dd	.	.	.	.	.	.	16d	.	.	.	.	.
.	.	16cc#	.	.	.	.	.	.	16c#	.	.	.	.	.
.	.	16b-	.	.	.	.	.	.	16B-	.	.	.	.	.
.	.	16a	.	.	.	.	.	.	16A	.	.	.	.	.
=226	=226	=226	=226	=226	=226	=226	=226	=226	=226	=226	=226	=226	=226	=226
2r	2r	8g	2c	2A	[2D	[2D	2r	2r	8G	2r	2r	2r	2r	2r
.	.	8f#	.	.	.	.	.	.	8F#	.	.	.	.	.
.	.	8dd	.	.	.	.	.	.	8d	.	.	.	.	.
.	.	8dd	.	.	.	.	.	.	8d	.	.	.	.	.
=227	=227	=227	=227	=227	=227	=227	=227	=227	=227	=227	=227	=227	=227	=227
2r	2r	8a	4.B-	2B-	2D_	2D_	2r	2r	8A	2r	2r	2r	2r	2r
.	.	8g	.	.	.	.	.	.	8G	.	.	.	.	.
.	.	8dd	.	.	.	.	.	.	8d	.	.	.	.	.
.	.	8dd	8g	.	.	.	.	.	8d	.	.	.	.	.
=228	=228	=228	=228	=228	=228	=228	=228	=228	=228	=228	=228	=228	=228	=228
2r	2r	8b-	2f#	2F#	2D]	2D]	2r	2r	8B-	2r	2r	2r	2r	2r
.	.	8a	.	.	.	.	.	.	8A	.	.	.	.	.
.	.	8dd	.	.	.	.	.	.	8d	.	.	.	.	.
.	.	8dd	.	.	.	.	.	.	8d	.	.	.	.	.
=229	=229	=229	=229	=229	=229	=229	=229	=229	=229	=229	=229	=229	=229	=229
4r	2r	8cc	8a	4G	4G	4G	4r	4r	8c	4r	2r	2r	2r	2r
.	.	8b-	8g	.	.	.	.	.	8B-	.	.	.	.	.
8dd	.	8d	8d	8d	8D	8D	8dd	8dd	8D	8D	.	.	.	.
8dd	.	8d	8d	8d	8D	8D	8dd	8dd	8D	8D	.	.	.	.
=230	=230	=230	=230	=230	=230	=230	=230	=230	=230	=230	=230	=230	=230	=230
4bb-	2r	4b-	4b-	4b-	4B-	4B-	4bb-	4bb-	4B-	4B-	2r	2r	2r	2r
4bb-	.	4b-	4b-	4b-	4B-	4B-	4bb-	4bb-	4B-	4B-	.	.	.	.
=231	=231	=231	=231	=231	=231	=231	=231	=231	=231	=231	=231	=231	=231	=231
8.bb-	2r	8.b-	8.b-	8.b-	8.B-	8.B-	8.bb-	8.bb-	8.B-	8.B-	2r	2r	2r	2r
16aa	.	16a	16a	16a	16A	16A	16aa	16aa	16A	16A	.	.	.	.
16gg	.	16g	16g	16g	16G	16G	16gg	16gg	16G	16G	.	.	.	.
16ff	.	16f	16f	16f	16F	16F	16ff	16ff	16F	16F	.	.	.	.
16ee	.	16e	16e	16e	16E	16E	16ee	16ee	16E	16E	.	.	.	.
16dd	.	16d	16d	16d	16D	16D	16dd	16dd	16D	16D	.	.	.	.
=232	=232	=232	=232	=232	=232	=232	=232	=232	=232	=232	=232	=232	=232	=232
[2aa	4AA	4c#	4c#	4A	4AA	4AA	2cc#	[2cc#	2A	2A	[2dd	[2g	[2dd	[2g
.	4r	8A	8A	4r	4r	4r	.	.	.	.	.	.	.	.
.	.	8A	8A	.	.	.	.	.	.	.	.	.	.	.
=233	=233	=233	=233	=233	=233	=233	=233	=233	=233	=233	=233	=233	=233	=233
2aa_	4AA	4e	4e	4c# 4E	4AA	4AA	2ee	2cc#]	2e	2c#	2dd_	2g_	2dd_	2g_
.	4r	8A	8A	4r	4r	4r	.	.	.	.	.	.	.	.
.	.	8A	8A	.	.	.	.	.	.	.	.	.	.	.
=234	=234	=234	=234	=234	=234	=234	=234	=234	=234	=234	=234	=234	=234	=234
2aa]	4AA	4g	4e	4E 4c#	4AA	4AA	2gg	2ee	2g	2e	2dd]	2g]	2dd]	2g]
.	4r	8e	8c#	4r	4r	4r	.	.	.	.	.	.	.	.
.	.	8e	8c#	.	.	.	.	.	.	.	.	.	.	.
=235	=235	=235	=235	=235	=235	=235	=235	=235	=235	=235	=235	=235	=235	=235
8aa	8AA	8cc#	8e	8c# 8E	8AA	8AA	8cc#	8a	8c#	8A	8dd	8g	8dd	8g
8r	8r	8a	8c#	8r	8r	8r	8r	8r	8r	8r	8r	8r	8r	8r
8ccc#	8AA	8ee	8cc#	8c# 8E	8AA	8AA	8ee	8cc#	8e	8c#	8dd	8g	8dd	8g
8r	8r	8cc#	8a	8r	8r	8r	8r	8r	8r	8r	8r	8r	8r	8r
=236	=236	=236	=236	=236	=236	=236	=236	=236	=236	=236	=236	=236	=236	=236
4eee	4AA	4gg	4ee	4c# 4E	4AA	4AA	[2gg	4ee	4g	4e	4dd	4g	4dd	4g
4r	4r	4r	4r	4r	4r	4r	.	4r	4r	4r	4r	4r	4r	4r
=237	=237	=237	=237	=237	=237	=237	=237	=237	=237	=237	=237	=237	=237	=237
2r	2r	2r	2r	2r	2r	2r	4gg]	2r	2r	2r	2r	2r	2r	2r
.	.	.	.	.	.	.	4gg#	.	.	.	.	.	.	.
=238	=238	=238	=238	=238	=238	=238	=238	=238	=238	=238	=238	=238	=238	=238
2r	2r	8f#	8d	4d	4D	4D	[2aa	2r	2r	2r	2r	2r	2r	2r
.	.	8a	8f#	.	.	.	.	.	.	.	.	.	.	.
.	.	8f#	8d	4r	4r	4r	.	.	.	.	.	.	.	.
.	.	8a	8f#	.	.	.	.	.	.	.	.	.	.	.
=239	=239	=239	=239	=239	=239	=239	=239	=239	=239	=239	=239	=239	=239	=239
2r	2r	8f#	8d	2r	2r	2r	4aa]	2r	2r	2r	2r	2r	2r	2r
.	.	8a	8f#	.	.	.	.	.	.	.	.	.	.	.
.	.	8f#	8d	.	.	.	8bb	.	.	.	.	.	.	.
.	.	8a	8f#	.	.	.	8aa	.	.	.	.	.	.	.
=240	=240	=240	=240	=240	=240	=240	=240	=240	=240	=240	=240	=240	=240	=240
2r	2r	8g	8e	4A	4AA	4AA	8aa	2r	2r	2r	2r	2r	2r	2r
.	.	8a	8g	.	.	.	8cc#	.	.	.	.	.	.	.
.	.	8g	8e	4r	4r	4r	[4cc#	.	.	.	.	.	.	.
.	.	8a	8g	.	.	.	.	.	.	.	.	.	.	.
=241	=241	=241	=241	=241	=241	=241	=241	=241	=241	=241	=241	=241	=241	=241
2r	2r	8g	8e	2r	2r	2r	4cc#]	2r	2r	2r	2r	2r	2r	2r
.	.	8a	8g	.	.	.	.	.	.	.	.	.	.	.
.	.	8g	8e	.	.	.	4cc#	.	.	.	.	.	.	.
.	.	8a	8g	.	.	.	.	.	.	.	.	.	.	.
=242	=242	=242	=242	=242	=242	=242	=242	=242	=242	=242	=242	=242	=242	=242
2r	2r	8r	8r	8f#	8F#	8F#	8ee	2r	2r	2r	2r	2r	2r	2r
.	.	8a	8d	8r	8r	8r	8dd	.	.	.	.	.	.	.
.	.	8r	8r	8c#	8C#	8C#	8ff#	.	.	.	.	.	.	.
.	.	8a	8e	8r	8r	8r	8ee	.	.	.	.	.	.	.
=243	=243	=243	=243	=243	=243	=243	=243	=243	=243	=243	=243	=243	=243	=243
2r	2r	8r	8r	8d	8D	8D	8gg	2r	2r	2r	2r	2r	2r	2r
.	.	8a	8f#	8r	8r	8r	8ff#	.	.	.	.	.	.	.
.	.	8r	8r	8G	8G	8G	8aa	.	.	.	.	.	.	.
.	.	8g	8e	8r	8r	8r	8gg	.	.	.	.	.	.	.
=244	=244	=244	=244	=244	=244	=244	=244	=244	=244	=244	=244	=244	=244	=244
2r	2r	8r	8r	4A	4A	4A	4.ff#	2r	2r	2r	2r	2r	2r	2r
.	.	8f#	8d	.	.	.	.	.	.	.	.	.	.	.
.	.	8a	8f#	4r	4r	4r	.	.	.	.	.	.	.	.
.	.	8f#	8d	.	.	.	16gg	.	.	.	.	.	.	.
.	.	.	.	.	.	.	16ff#	.	.	.	.	.	.	.
=245	=245	=245	=245	=245	=245	=245	=245	=245	=245	=245	=245	=245	=245	=245
2r	2r	4e	8c#	2r	2r	2r	8ee	2r	2r	2r	2r	2r	2r	2r
.	.	.	8d	.	.	.	8ff#	.	.	.	.	.	.	.
.	.	4r	8e	.	.	.	8gg	.	.	.	.	.	.	.
.	.	.	8e	.	.	.	8gg#	.	.	.	.	.	.	.
=246	=246	=246	=246	=246	=246	=246	=246	=246	=246	=246	=246	=246	=246	=246
2r	2r	8f#	8d	4d	4D	4D	[2aa	2r	2r	2r	[2cc	[2e	2r	2r
.	.	8a	8f#	.	.	.	.	.	.	.	.	.	.	.
.	.	8f#	8d	4r	4r	4r	.	.	.	.	.	.	.	.
.	.	8a	8f#	.	.	.	.	.	.	.	.	.	.	.
=247	=247	=247	=247	=247	=247	=247	=247	=247	=247	=247	=247	=247	=247	=247
2r	2r	8f#	8d	2r	2r	2r	4aa]	2r	2r	2r	2cc]	2e]	2r	2r
.	.	8a	8f#	.	.	.	.	.	.	.	.	.	.	.
.	.	8f#	8d	.	.	.	8bb	.	.	.	.	.	.	.
.	.	8a	8f#	.	.	.	8aa	.	.	.	.	.	.	.
=248	=248	=248	=248	=248	=248	=248	=248	=248	=248	=248	=248	=248	=248	=248
2r	2r	8g	8e	4A	4A	4A	8aa	2r	2r	2r	[2dd	[2g	2r	2r
.	.	8a	8g	.	.	.	8cc#	.	.	.	.	.	.	.
.	.	8g	8e	4r	4r	4r	[4cc#	.	.	.	.	.	.	.
.	.	8a	8g	.	.	.	.	.	.	.	.	.	.	.
=249	=249	=249	=249	=249	=249	=249	=249	=249	=249	=249	=249	=249	=249	=249
2r	2r	8g	8e	2r	2r	2r	4cc#]	2r	2r	2r	2dd]	2g]	2r	2r
.	.	8a	8g	.	.	.	.	.	.	.	.	.	.	.
.	.	8g	8e	.	.	.	4cc#	.	.	.	.	.	.	.
.	.	8a	8g	.	.	.	.	.	.	.	.	.	.	.
=250	=250	=250	=250	=250	=250	=250	=250	=250	=250	=250	=250	=250	=250	=250
2r	2r	8r	8r	8F#	8F#	8F#	8ee	2r	2r	2r	4gg	4ee	2r	2r
.	.	8a	8f#	8r	8r	8r	8dd	.	.	.	.	.	.	.
.	.	8r	8r	8G	8G	8G	8ff#	.	.	.	4ff	4dd	.	.
.	.	8g	8e	8r	8r	8r	8ee	.	.	.	.	.	.	.
=251	=251	=251	=251	=251	=251	=251	=251	=251	=251	=251	=251	=251	=251	=251
4.r	2r	8r	8r	8A	8A	8A	8gg	4.r	2r	2r	4ee	4cc	2r	2r
.	.	8f#	8d	8r	8r	8r	8ff#	.	.	.	.	.	.	.
.	.	8e	8c#	8A	8AA	8AA	8aa	.	.	.	4dd	4g	.	.
8cc#	.	8cc#	8c#	8r	8r	8r	8cc#	8cc#	.	.	.	.	.	.
=252	=252	=252	=252	=252	=252	=252	=252	=252	=252	=252	=252	=252	=252	=252
8ee	2r	8ee	8e	8e	4D	4D	8ee	8ee	2r	2r	4cc	4e	2r	2r
8dd	.	8dd	8d	8d	.	.	8dd	8dd	.	.	.	.	.	.
8ff#	.	8ff#	8f#	8f#	4r	4r	8ff#	8ff#	.	.	4r	4r	.	.
8ee	.	8ee	8e	8e	.	.	8ee	8ee	.	.	.	.	.	.
=253	=253	=253	=253	=253	=253	=253	=253	=253	=253	=253	=253	=253	=253	=253
8gg	2r	8gg	8g	8g	2r	2r	8gg	8gg	2r	2r	2r	2r	2r	2r
8ff#	.	8ff#	8f#	8f#	.	.	8ff#	8ff#	.	.	.	.	.	.
8aa	.	8aa	8a	8a	.	.	8aa	8aa	.	.	.	.	.	.
8cc#	.	8cc#	8c#	8c#	.	.	8cc#	8cc#	.	.	.	.	.	.
=254	=254	=254	=254	=254	=254	=254	=254	=254	=254	=254	=254	=254	=254	=254
8dd	2r	8dd	8d	8d	2r	2r	8dd	8dd	2r	2r	2r	2r	2r	2r
8cc#	.	8cc#	8c#	8c#	.	.	8cc#	8cc#	.	.	.	.	.	.
8ee	.	8ee	8e	8e	.	.	8ee	8ee	.	.	.	.	.	.
8dd	.	8dd	8d	8d	.	.	8dd	8dd	.	.	.	.	.	.
=255	=255	=255	=255	=255	=255	=255	=255	=255	=255	=255	=255	=255	=255	=255
8ff#	2r	8ff#	8f#	8f#	4.r	4.r	8ff#	8ff#	4.r	4.r	2r	2r	2r	2r
8ee	.	8ee	8e	8e	.	.	8ee	8ee	.	.	.	.	.	.
8gg	.	8gg	8g	8g	.	.	8gg	8gg	.	.	.	.	.	.
8a#	.	8a#	8a#	8A#	8A#	8A#	8a#	8a#	8A#	8A#	.	.	.	.
=256	=256	=256	=256	=256	=256	=256	=256	=256	=256	=256	=256	=256	=256	=256
8cc#	2r	8cc#	8cc#	8c#	8c#	8c#	8cc#	8cc#	8c#	8c#	2r	2r	2r	2r
8b	.	8b	8b	8B	8B	8B	8b	8b	8B	8B	.	.	.	.
8r	.	8dd	8dd	8d	8d	8d	8r	8r	8d	8d	.	.	.	.
8ff#	.	8f#	8f#	8f#	8F#	8F#	8ff#	8ff#	8F#	8F#	.	.	.	.
=257	=257	=257	=257	=257	=257	=257	=257	=257	=257	=257	=257	=257	=257	=257
8aa	2r	8a	8a	8a	8A	8A	8aa	8aa	8A	8A	2r	2r	2r	2r
8gg	.	8g	8g	8g	8G	8G	8gg	8gg	8G	8G	.	.	.	.
8r	.	8b	8b	8b	8B	8B	8r	8r	8B	8B	.	.	.	.
8dd#	.	8d#	8d#	8d#	8D#	8D#	8dd#	8dd#	8D#	8D#	.	.	.	.
=258	=258	=258	=258	=258	=258	=258	=258	=258	=258	=258	=258	=258	=258	=258
8ff#	2r	8f#	8f#	8f#	8F#	8F#	8ff#	8ff#	8F#	8F#	2r	2r	2r	2r
8ee	.	8e	8e	8e	8E	8E	8ee	8ee	8E	8E	.	.	.	.
8gg	.	8g	8g	8g	8G	8G	8gg	8gg	8G	8G	.	.	.	.
8ff#	.	8f#	8f#	8f#	8F#	8F#	8ff#	8ff#	8F#	8F#	.	.	.	.
=259	=259	=259	=259	=259	=259	=259	=259	=259	=259	=259	=259	=259	=259	=259
8ee	2r	8e	8e	8e	8E	8E	8ee	8ee	8E	8E	2r	2r	2r	2r
8dd	.	8d	8d	8d	8D	8D	8dd	8dd	8D	8D	.	.	.	.
8cc#	.	8c#	8c#	8c#	8C#	8C#	8cc#	8cc#	8C#	8C#	.	.	.	.
8b	.	8B	8B	8B	8BB	8BB	8b	8b	8BB	8BB	.	.	.	.
=260	=260	=260	=260	=260	=260	=260	=260	=260	=260	=260	=260	=260	=260	=260
4a	4.AA	4A	4A	4A	[2AA	[2AA	4a	4a	4AA	4AA	[2g	[2G	4.gg	4.g
8r	.	8r	8r	8r	.	.	8r	8r	8r	8r	.	.	.	.
8ff#	8AA	8f#	8d#	8d# 8f#	.	.	8ff#	8dd#	8f#	8d#	.	.	8gg	8g
=261	=261	=261	=261	=261	=261	=261	=261	=261	=261	=261	=261	=261	=261	=261
8gg	8AA	8g	8e	8e 8g	2AA]	2AA]	8gg	8ee	8g	8e	2g]	2G]	8gg	8g
8ff#	8AA	8f#	8d#	8f# 8d#	.	.	8ff#	8dd#	8f#	8d#	.	.	8gg	8g
8gg	8AA	8g	8e	8g 8e	.	.	8gg	8ee	8g	8e	.	.	8gg	8g
8aa	8AA	8a	8f#	8f# 8a	.	.	8aa	8ff#	8a	8f#	.	.	8gg	8g
=262	=262	=262	=262	=262	=262	=262	=262	=262	=262	=262	=262	=262	=262	=262
4gg	4.AA	4g	4e	4g 4e	[2AA	[2AA	4gg	4ee	4g	4e	[2g	[2G	4.gg	4.g
8r	.	8r	8r	8r	.	.	8r	8r	8r	8r	.	.	.	.
8ff#	8AA	8ff#	8dd#	8f# 8d#	.	.	8ff#	8dd#	8f#	8d#	.	.	8gg	8g
=263	=263	=263	=263	=263	=263	=263	=263	=263	=263	=263	=263	=263	=263	=263
8gg	8AA	8gg	8ee	8e 8g	2AA]	2AA]	8gg	8ee	8g	8e	2g]	2G]	8gg	8g
8ff#	8AA	8ff#	8dd#	8f# 8d#	.	.	8ff#	8dd#	8f#	8d#	.	.	8gg	8g
8gg	8AA	8gg	8ee	8g 8e	.	.	8gg	8ee	8g	8e	.	.	8gg	8g
8aa	8AA	8aa	8ff#	8a 8f#	.	.	8aa	8ff#	8a	8f#	.	.	8gg	8g
=264	=264	=264	=264	=264	=264	=264	=264	=264	=264	=264	=264	=264	=264	=264
4gg	4AA	4gg	4ee	4g 4e	4AA	4AA	4gg	4ee	4g	4e	4g	4G	4gg	4g
8r	4r	8r	8r	8r	4r	4r	8r	8r	8r	8r	4r	4r	4r	4r
8ff#	.	8ff#	8dd#	8d# 8f#	.	.	8ff#	8dd#	8f#	8d#	.	.	.	.
=265	=265	=265	=265	=265	=265	=265	=265	=265	=265	=265	=265	=265	=265	=265
4gg	4AA	4gg	4ee	4e 4g	4AA	4AA	4gg	4ee	4g	4e	4g	4G	4gg	4g
8r	4r	8r	8r	8r	4r	4r	8r	8r	8r	8r	4r	4r	4r	4r
8ff#	.	8ff#	8dd#	8f# 8d#	.	.	8ff#	8dd#	8f#	8d#	.	.	.	.
=266	=266	=266	=266	=266	=266	=266	=266	=266	=266	=266	=266	=266	=266	=266
4gg	4AA	4gg	4ee	4e 4g	4AA	4AA	4gg	4ee	4g	4e	4g	4G	4gg	4g
4r	4r	4r	4r	4r	4r	4r	4r	4r	4r	4r	4r	4r	4r	4r
=267	=267	=267	=267	=267	=267	=267	=267	=267	=267	=267	=267	=267	=267	=267
2r	2r	2r	2r	2r	2r	2r	2r	2r	2r	2r	2r	2r	2r	2r
=268	=268	=268	=268	=268	=268	=268	=268	=268	=268	=268	=268	=268	=268	=268
4ddd	4D	4d 4ddd 4dd	4ff# 4a 4d	4A 4d 4D	4.D	4.D	4ff#	4a	4D	4D	4cc	4e	4ee	4cc
4r	4r	8r	8r	8r	.	.	4r	4r	4r	4r	4r	4r	4r	4r
.	.	8c#	8c#	8c#	8C#	8C#	.	.	.	.	.	.	.	.
=269	=269	=269	=269	=269	=269	=269	=269	=269	=269	=269	=269	=269	=269	=269
2r	16D	8d	8d	8d	8D	8D	2r	2r	2r	2r	2r	2r	2r	2r
.	16D	.	.	.	.	.	.	.	.	.	.	.	.	.
.	16D	8c#	8c#	8c#	8C#	8C#	.	.	.	.	.	.	.	.
.	16D	.	.	.	.	.	.	.	.	.	.	.	.	.
.	16D	8d	8d	8d	8D	8D	.	.	.	.	.	.	.	.
.	16D	.	.	.	.	.	.	.	.	.	.	.	.	.
.	16D	8e	8e	8e	8E	8E	.	.	.	.	.	.	.	.
.	16D	.	.	.	.	.	.	.	.	.	.	.	.	.
=270	=270	=270	=270	=270	=270	=270	=270	=270	=270	=270	=270	=270	=270	=270
2r	16D	4d	4d	4d	4D	4D	4.r	4.r	2r	2r	2r	2r	2r	2r
.	16D	.	.	.	.	.	.	.	.	.	.	.	.	.
.	16D	.	.	.	.	.	.	.	.	.	.	.	.	.
.	16D	.	.	.	.	.	.	.	.	.	.	.	.	.
.	16D	4r	4r	4r	4r	4r	.	.	.	.	.	.	.	.
.	16D	.	.	.	.	.	.	.	.	.	.	.	.	.
.	16D	.	.	.	.	.	8gg#	8ee#	.	.	.	.	.	.
.	16D	.	.	.	.	.	.	.	.	.	.	.	.	.
=271	=271	=271	=271	=271	=271	=271	=271	=271	=271	=271	=271	=271	=271	=271
2r	16D	2r	2r	2r	2r	2r	8aa	8ff#	2r	2r	2r	2r	2r	2r
.	16D	.	.	.	.	.	.	.	.	.	.	.	.	.
.	16D	.	.	.	.	.	8gg#	8ee#	.	.	.	.	.	.
.	16D	.	.	.	.	.	.	.	.	.	.	.	.	.
.	16D	.	.	.	.	.	8aa	8ff#	.	.	.	.	.	.
.	16D	.	.	.	.	.	.	.	.	.	.	.	.	.
.	16D	.	.	.	.	.	8bb	8gg	.	.	.	.	.	.
.	16D	.	.	.	.	.	.	.	.	.	.	.	.	.
=272	=272	=272	=272	=272	=272	=272	=272	=272	=272	=272	=272	=272	=272	=272
2r	16D	4.r	4.r	4.r	4.r	4.r	4aa	4ff#	2r	2r	2r	2r	2r	2r
.	16D	.	.	.	.	.	.	.	.	.	.	.	.	.
.	16D	.	.	.	.	.	.	.	.	.	.	.	.	.
.	16D	.	.	.	.	.	.	.	.	.	.	.	.	.
.	16D	.	.	.	.	.	4r	4r	.	.	.	.	.	.
.	16D	.	.	.	.	.	.	.	.	.	.	.	.	.
.	16D	8c#	8c#	8c#	8C#	8C#	.	.	.	.	.	.	.	.
.	16D	.	.	.	.	.	.	.	.	.	.	.	.	.
=273	=273	=273	=273	=273	=273	=273	=273	=273	=273	=273	=273	=273	=273	=273
2r	16D	8d	8d	8d	8D	8D	2r	2r	2r	2r	2r	2r	2r	2r
.	16D	.	.	.	.	.	.	.	.	.	.	.	.	.
.	16D	8c#	8c#	8c#	8C#	8C#	.	.	.	.	.	.	.	.
.	16D	.	.	.	.	.	.	.	.	.	.	.	.	.
.	16D	8d	8d	8d	8D	8D	.	.	.	.	.	.	.	.
.	16D	.	.	.	.	.	.	.	.	.	.	.	.	.
.	16D	8e	8e	8e	8E	8E	.	.	.	.	.	.	.	.
.	16D	.	.	.	.	.	.	.	.	.	.	.	.	.
=274	=274	=274	=274	=274	=274	=274	=274	=274	=274	=274	=274	=274	=274	=274
2r	16D	4d	4d	4d	4D	4D	4.r	4.r	2r	2r	2r	2r	2r	2r
.	16D	.	.	.	.	.	.	.	.	.	.	.	.	.
.	16D	.	.	.	.	.	.	.	.	.	.	.	.	.
.	16D	.	.	.	.	.	.	.	.	.	.	.	.	.
.	16D	4r	4r	4r	4r	4r	.	.	.	.	.	.	.	.
.	16D	.	.	.	.	.	.	.	.	.	.	.	.	.
.	16D	.	.	.	.	.	8gg#	8ee#	.	.	.	.	.	.
.	16D	.	.	.	.	.	.	.	.	.	.	.	.	.
=275	=275	=275	=275	=275	=275	=275	=275	=275	=275	=275	=275	=275	=275	=275
2r	16D	2r	2r	2r	2r	2r	8aa	8ff#	2r	2r	2r	2r	2r	2r
.	16D	.	.	.	.	.	.	.	.	.	.	.	.	.
.	16D	.	.	.	.	.	8gg#	8ee#	.	.	.	.	.	.
.	16D	.	.	.	.	.	.	.	.	.	.	.	.	.
.	16D	.	.	.	.	.	8aa	8ff#	.	.	.	.	.	.
.	16D	.	.	.	.	.	.	.	.	.	.	.	.	.
.	16D	.	.	.	.	.	8bb	8gg	.	.	.	.	.	.
.	16D	.	.	.	.	.	.	.	.	.	.	.	.	.
=276	=276	=276	=276	=276	=276	=276	=276	=276	=276	=276	=276	=276	=276	=276
2r	8D	2r	2r	2r	2r	2r	4aa	4ff#	4.r	4.r	4.r	4.r	2r	2r
.	8D	.	.	.	.	.	.	.	.	.	.	.	.	.
.	8D	.	.	.	.	.	8r	8r	.	.	.	.	.	.
.	8AA	.	.	.	.	.	8gg	8ee	8e	8A	8dd	8g	.	.
=277	=277	=277	=277	=277	=277	=277	=277	=277	=277	=277	=277	=277	=277	=277
2r	8D	2r	2r	2r	2r	2r	8ff#	8dd	8f#	8d	8ee	8cc	2r	2r
.	8AA	.	.	.	.	.	8gg	8ee	8e	8c#	8ff	8dd	.	.
.	8D	.	.	.	.	.	8ff#	8dd	8f#	8d	8ee	8cc	.	.
.	8AA	.	.	.	.	.	8gg	8cc#	8g	8e	8dd	8g	.	.
=278	=278	=278	=278	=278	=278	=278	=278	=278	=278	=278	=278	=278	=278	=278
2r	8D	2r	2r	2r	2r	2r	4ff#	4dd	4f#	4d	4ee	4cc	2r	2r
.	8D	.	.	.	.	.	.	.	.	.	.	.	.	.
.	8D	.	.	.	.	.	8r	8r	8r	8r	8r	8r	.	.
.	8AA	.	.	.	.	.	8gg	8ee	8e	8A	8dd	8g	.	.
=279	=279	=279	=279	=279	=279	=279	=279	=279	=279	=279	=279	=279	=279	=279
2r	8D	2r	2r	2r	2r	2r	8ff#	8dd	8f#	8d	8ee	8cc	2r	2r
.	8AA	.	.	.	.	.	8gg	8ee	8e	8c#	8ff	8dd	.	.
.	8D	.	.	.	.	.	8ff#	8dd	8f#	8d	8ee	8cc	.	.
.	8AA	.	.	.	.	.	8gg	8cc#	8g	8e	8dd	8g	.	.
=280	=280	=280	=280	=280	=280	=280	=280	=280	=280	=280	=280	=280	=280	=280
2r	8D	4.r	4.r	4.r	4.r	4.r	4ff#	4dd	4f#	4d	4ee	4cc	2r	2r
.	8D	.	.	.	.	.	.	.	.	.	.	.	.	.
.	8D	.	.	.	.	.	4r	4r	4r	4r	4r	4r	.	.
.	8r	8g#	8g#	8g#	8G#	8G#	.	.	.	.	.	.	.	.
=281	=281	=281	=281	=281	=281	=281	=281	=281	=281	=281	=281	=281	=281	=281
2r	2r	8a	8a	8a	8A	8A	2r	2r	2r	2r	2r	2r	2r	2r
.	.	8g#	8g#	8g#	8G#	8G#	.	.	.	.	.	.	.	.
.	.	8a	8a	8a	8A	8A	.	.	.	.	.	.	.	.
.	.	8b	8b	8b	8B	8B	.	.	.	.	.	.	.	.
=282	=282	=282	=282	=282	=282	=282	=282	=282	=282	=282	=282	=282	=282	=282
2r	2r	8g	8g	8g	8G	8G	2r	2r	2r	2r	2r	2r	2r	2r
.	.	8e#	8e#	8e#	8E#	8E#	.	.	.	.	.	.	.	.
.	.	8f#	8f#	8f#	8F#	8F#	.	.	.	.	.	.	.	.
.	.	8d#	8d#	8d#	8D#	8D#	.	.	.	.	.	.	.	.
=283	=283	=283	=283	=283	=283	=283	=283	=283	=283	=283	=283	=283	=283	=283
2r	2r	8e	8e	8e	8E	8E	2r	2r	2r	2r	2r	2r	2r	2r
.	.	8c#	8c#	8c#	8C#	8C#	.	.	.	.	.	.	.	.
.	.	8d	8d	8d	8D	8D	.	.	.	.	.	.	.	.
.	.	8B	8B	8B	8BB	8BB	.	.	.	.	.	.	.	.
=284	=284	=284	=284	=284	=284	=284	=284	=284	=284	=284	=284	=284	=284	=284
[2bb	4D	4G	4G	8G	8GG	8GG	[2bb	[2dd	[2G	[2G	[2cc	[2cc	[2cc	[2cc
.	.	.	.	8g	8G	8G	.	.	.	.	.	.	.	.
.	4r	[4bb	[4b 4d	8g	8G	8G	.	.	.	.	.	.	.	.
.	.	.	.	8g	8G	8G	.	.	.	.	.	.	.	.
=285	=285	=285	=285	=285	=285	=285	=285	=285	=285	=285	=285	=285	=285	=285
2bb]	2r	4bb]	4b 4d]	8G	8GG	8GG	2bb]	2dd]	2G]	2G]	2cc]	2cc]	2cc]	2cc]
.	.	.	.	8g	8G	8G	.	.	.	.	.	.	.	.
.	.	4bb	4b 4d	8g	8G	8G	.	.	.	.	.	.	.	.
.	.	.	.	8g	8G	8G	.	.	.	.	.	.	.	.
=286	=286	=286	=286	=286	=286	=286	=286	=286	=286	=286	=286	=286	=286	=286
[2aa	4AA	4A	4cc# 4e	8G	8GG	8GG	[2ccc#	[2ee	[2G	[2G	[2dd	[2g	[2dd	[2g
.	.	.	.	8g	8G	8G	.	.	.	.	.	.	.	.
.	4r	[4ccc#	[4ee 4a	8g	8G	8G	.	.	.	.	.	.	.	.
.	.	.	.	8g	8G	8G	.	.	.	.	.	.	.	.
=287	=287	=287	=287	=287	=287	=287	=287	=287	=287	=287	=287	=287	=287	=287
2aa]	2r	4ccc#]	4ee 4a]	8G	8GG	8GG	2ccc#]	2ee]	2G]	2G]	2dd]	2g]	2dd]	2g]
.	.	.	.	8g	8G	8G	.	.	.	.	.	.	.	.
.	.	4ccc#	4ee 4a	8g	8G	8G	.	.	.	.	.	.	.	.
.	.	.	.	8g	8G	8G	.	.	.	.	.	.	.	.
=288	=288	=288	=288	=288	=288	=288	=288	=288	=288	=288	=288	=288	=288	=288
2ddd	4D	8ddd	8ff#	8F#	8FF#	8FF#	2ddd	2aa	2F#	2F#	2ee	2cc	2ee	2cc
.	.	8aa	8aa	8f#	8F#	8F#	.	.	.	.	.	.	.	.
.	8D	8ff#	8ff#	8f#	8F#	8F#	.	.	.	.	.	.	.	.
.	8D	8dd	8dd	8f#	8F#	8F#	.	.	.	.	.	.	.	.
=289	=289	=289	=289	=289	=289	=289	=289	=289	=289	=289	=289	=289	=289	=289
2bb	4D	8bb	8bb	8G	8GG	8GG	2bb	2gg	2G	2G	2ff	2dd	2ff	2dd
.	.	8gg	8gg	8g	8G	8G	.	.	.	.	.	.	.	.
.	8D	8ee	8ee	8g	8G	8G	.	.	.	.	.	.	.	.
.	8D	8b	8b	8g	8G	8G	.	.	.	.	.	.	.	.
=290	=290	=290	=290	=290	=290	=290	=290	=290	=290	=290	=290	=290	=290	=290
2aa	4AA	8a	8a	8A	8AA	8AA	2aa	2ff#	2A	2A	2ee	2cc	2ee	2cc
.	.	8aa	8aa	8a	8A	8A	.	.	.	.	.	.	.	.
.	8AA	8ff#	8ff#	8a	8A	8A	.	.	.	.	.	.	.	.
.	8AA	8dd	8dd	8a	8A	8A	.	.	.	.	.	.	.	.
=291	=291	=291	=291	=291	=291	=291	=291	=291	=291	=291	=291	=291	=291	=291
2cc#	4AA	8a	8a	8A	8AA	8AA	2cc#	2ee	2A	2A	2dd	2g	2dd	2g
.	.	8g	8g	8a	8A	8A	.	.	.	.	.	.	.	.
.	8AA	8e	8e	8a	8A	8A	.	.	.	.	.	.	.	.
.	8AA	8c#	8c#	8a	8A	8A	.	.	.	.	.	.	.	.
=292	=292	=292	=292	=292	=292	=292	=292	=292	=292	=292	=292	=292	=292	=292
4dd	4D	4d	4d	4d	4D	4D	4dd	4dd	4D	4D	4cc	4c	4cc	4c
4r	8D	4r	4r	4r	4r	4r	8dd	8dd	8d	8d	8cc	8c	8cc	8c
.	8D	.	.	.	.	.	8dd	8dd	8d	8d	8cc	8c	8cc	8c
=293	=293	=293	=293	=293	=293	=293	=293	=293	=293	=293	=293	=293	=293	=293
2r	4D	2r	2r	2r	2r	2r	4ff#	4ff#	4f#	4f#	4ee	4e	4ee	4e
.	8D	.	.	.	.	.	8dd	8dd	8d	8d	8cc	8c	8cc	8c
.	8D	.	.	.	.	.	8dd	8dd	8d	8d	8cc	8c	8cc	8c
=294	=294	=294	=294	=294	=294	=294	=294	=294	=294	=294	=294	=294	=294	=294
4r	4AA	4r	2r	2r	2r	2r	4a	4a	4A	4A	4g	4G	4g	4G
8a	4r	8a	.	.	.	.	4r	4r	4r	4r	4r	4r	4r	4r
8a	.	8a	.	.	.	.	.	.	.	.	.	.	.	.
=295	=295	=295	=295	=295	=295	=295	=295	=295	=295	=295	=295	=295	=295	=295
4gg	2r	4gg	2cc# 2e	2g 2A	2AA	2AA	2r	2r	2r	2r	2r	2r	2r	2r
16ff#	.	16ff#	.	.	.	.	.	.	.	.	.	.	.	.
16ee	.	16ee	.	.	.	.	.	.	.	.	.	.	.	.
16dd	.	16dd	.	.	.	.	.	.	.	.	.	.	.	.
16cc#	.	16cc#	.	.	.	.	.	.	.	.	.	.	.	.
=296	=296	=296	=296	=296	=296	=296	=296	=296	=296	=296	=296	=296	=296	=296
4dd	4r	4dd	4dd 4f#	4f# 4A	4D	4D	4r	4r	4r	4r	4r	4r	4r	4r
4r	8D	4r	4r	4r	4r	4r	8dd	8dd	8d	8d	8cc	8c	8cc	8c
.	8D	.	.	.	.	.	8dd	8dd	8d	8d	8cc	8c	8cc	8c
=297	=297	=297	=297	=297	=297	=297	=297	=297	=297	=297	=297	=297	=297	=297
2r	4D	2r	2r	2r	2r	2r	4ff#	4ff#	4f#	4f#	4ee	4e	4ee	4e
.	8D	.	.	.	.	.	8dd	8dd	8d	8d	8cc	8c	8cc	8c
.	8D	.	.	.	.	.	8dd	8dd	8d	8d	8cc	8c	8cc	8c
=298	=298	=298	=298	=298	=298	=298	=298	=298	=298	=298	=298	=298	=298	=298
4r	4AA	4r	2r	2r	2r	2r	4a	4a	4A	4A	4g	4G	4g	4G
8a	4r	8a	.	.	.	.	4r	4r	4r	4r	4r	4r	4r	4r
8a	.	8a	.	.	.	.	.	.	.	.	.	.	.	.
=299	=299	=299	=299	=299	=299	=299	=299	=299	=299	=299	=299	=299	=299	=299
4bb	2r	4bb	2cc# 2gg	2A 2e	2AA	2AA	2r	2r	2r	2r	2r	2r	2r	2r
16aa	.	16aa	.	.	.	.	.	.	.	.	.	.	.	.
16gg	.	16gg	.	.	.	.	.	.	.	.	.	.	.	.
16ff#	.	16ff#	.	.	.	.	.	.	.	.	.	.	.	.
16ee	.	16ee	.	.	.	.	.	.	.	.	.	.	.	.
=300	=300	=300	=300	=300	=300	=300	=300	=300	=300	=300	=300	=300	=300	=300
8dd	4D	8dd	4dd 4ff#	4f# 4d	4D	4D	2ddd	2ff#	4D	4D	2cc	2e	2cc	2e
8ddd	.	8ddd	.	.	.	.	.	.	.	.	.	.	.	.
8aa	4r	8aa	4r	4r	4r	4r	.	.	4r	4r	.	.	.	.
8ff#	.	8ff#	.	.	.	.	.	.	.	.	.	.	.	.
=301	=301	=301	=301	=301	=301	=301	=301	=301	=301	=301	=301	=301	=301	=301
8dd	4D	8dd	4d 4ff# 4a	4A 4f#	4D	4D	2aa	2ff#	4D	4D	2ee	2cc	2ee	2cc
8aa	.	8aa	.	.	.	.	.	.	.	.	.	.	.	.
8ff#	4r	8ff#	4r	4r	4r	4r	.	.	4r	4r	.	.	.	.
8dd	.	8dd	.	.	.	.	.	.	.	.	.	.	.	.
=302	=302	=302	=302	=302	=302	=302	=302	=302	=302	=302	=302	=302	=302	=302
8a	4D	8a	4a 4ff# 4d	4A 4f#	8D	8D	2ff#	2a	8D	8D	2gg	2ee	2gg	2ee
8ff#	.	8ff#	.	.	8f#	8f#	.	.	8f#	8f#	.	.	.	.
8dd	4r	8dd	4r	4r	8d	8d	.	.	8d	8d	.	.	.	.
8a	.	8a	.	.	8A	8A	.	.	8A	8A	.	.	.	.
=303	=303	=303	=303	=303	=303	=303	=303	=303	=303	=303	=303	=303	=303	=303
8f#	4D	8f#	8ff#	8d	8F#	8F#	2dd	[2f#	8F#	8F#	2ee	2cc	2ee	2cc
8dd	.	8dd	8dd	8dd	8d	8d	.	.	8d	8d	.	.	.	.
8a	4r	8a	8a	8a	8A	8A	.	.	8A	8A	.	.	.	.
8f#	.	8f#	8f#	8f#	8F#	8F#	.	.	8F#	8F#	.	.	.	.
=304	=304	=304	=304	=304	=304	=304	=304	=304	=304	=304	=304	=304	=304	=304
4d	4D	4d	4d	4d	4D	4D	4d	4f#]	4D	4D	4cc	4e	4cc	4e
4r	4r	4r	4r	4r	4r	4r	4r	4r	4r	4r	4r	4r	4r	4r
=305	=305	=305	=305	=305	=305	=305	=305	=305	=305	=305	=305	=305	=305	=305
16ddd	8D	16d	16d	16D	8D	8D	16dd	16dd	8D	8D	8cc	8cc	8cc	8cc
16ccc#	.	16c#	16c#	16C#	.	.	16cc#	16cc#	.	.	.	.	.	.
16ddd	8D	16d	16d	16D	8D	8D	16dd	16dd	8D	8D	8cc	8cc	8cc	8cc
16ccc#	.	16c#	16c#	16C#	.	.	16cc#	16cc#	.	.	.	.	.	.
16ddd	8D	16d	16d	16D	8D	8D	16dd	16dd	8D	8D	8cc	8cc	8cc	8cc
16ccc#	.	16c#	16c#	16C#	.	.	16cc#	16cc#	.	.	.	.	.	.
16ddd	8D	16d	16d	16D	8D	8D	16dd	16dd	8D	8D	8cc	8cc	8cc	8cc
16ccc#	.	16c#	16c#	16C#	.	.	16cc#	16cc#	.	.	.	.	.	.
=306	=306	=306	=306	=306	=306	=306	=306	=306	=306	=306	=306	=306	=306	=306
4ddd	4D	4d	4d	4D	4D	4D	4dd	4dd	4D	4D	4cc	4cc	4cc	4cc
4r	4r	4r	4r	4r	4r	4r	4r	4r	4r	4r	4r	4r	4r	4r
=307	=307	=307	=307	=307	=307	=307	=307	=307	=307	=307	=307	=307	=307	=307
16ddd	8D	16d	16d	16D	8D	8D	16dd	16dd	8D	8D	8cc	8cc	8cc	8cc
16ccc#	.	16c#	16c#	16C#	.	.	16cc#	16cc#	.	.	.	.	.	.
16ddd	8D	16d	16d	16D	8D	8D	16dd	16dd	8D	8D	8cc	8cc	8cc	8cc
16ccc#	.	16c#	16c#	16C#	.	.	16cc#	16cc#	.	.	.	.	.	.
16ddd	8D	16d	16d	16D	8D	8D	16dd	16dd	8D	8D	8cc	8cc	8cc	8cc
16ccc#	.	16c#	16c#	16C#	.	.	16cc#	16cc#	.	.	.	.	.	.
16ddd	8D	16d	16d	16D	8D	8D	16dd	16dd	8D	8D	8cc	8cc	8cc	8cc
16ccc#	.	16c#	16c#	16C#	.	.	16cc#	16cc#	.	.	.	.	.	.
=308	=308	=308	=308	=308	=308	=308	=308	=308	=308	=308	=308	=308	=308	=308
4ddd	4D	4d	4d	4D	4D	4D	4dd	4dd	4D	4D	4cc	4cc	4cc	4cc
4r	4D	4ff# 4a	4ff# 4a	4d	4D	4D	4ff#	4dd	4D	4D	4ee	4cc	4ee	4cc
=309	=309	=309	=309	=309	=309	=309	=309	=309	=309	=309	=309	=309	=309	=309
4aa	4D	4a 4aa	4a 4aa	4d	4D	4D	4aa	4ff#	4D	4D	4gg	4ee	4gg	4ee
4ff#	4D	4ff# 4a	4ff# 4a	4d	4D	4D	4ff#	4dd	4D	4D	4ee	4cc	4ee	4cc
=310	=310	=310	=310	=310	=310	=310	=310	=310	=310	=310	=310	=310	=310	=310
4dd	4D	4d 4dd	4dd 4d	4d	4D	4D	4dd	4f#	4D	4D	4cc	4e	4cc	4e
4r	4r	4r	4r	4r	4r	4r	4r	4r	4r	4r	4r	4r	4r	4r
=311	=311	=311	=311	=311	=311	=311	=311	=311	=311	=311	=311	=311	=311	=311
4ddd	4D	4d 4ff# 4a	4d 4ff# 4a	4D 4f# 4A	4D	4D	4ff#	4dd	4D	4D	4cc	4e	4cc	4e
4r	4r	4r	4r	4r	4r	4r	4r	4r	4r	4r	4r	4r	4r	4r
=312	=312	=312	=312	=312	=312	=312	=312	=312	=312	=312	=312	=312	=312	=312
4ddd	4D	4d 4ff# 4a	4d 4ff# 4a	4D 4f# 4A	4D	4D	4ff#	4dd	4D	4D	4cc	4e	4cc	4e
4r	4r	4r	4r	4r	4r	4r	4r	4r	4r	4r	4r	4r	4r	4r
==	==	==	==	==	==	==	==	==	==	==	==	==	==	==
*-	*-	*-	*-	*-	*-	*-	*-	*-	*-	*-	*-	*-	*-	*-
!!!RWG1: This file contains only pitch and duration data.
!!!RWG2: Transposing instruments are not transposed.
!!!RWG3: Spines may have incompatible meters.
!!!RWG4: Durations of rests and tied notes may be interpreted.
!!!RWG: Key is interpreted using the Humdrum key tool.
!!!AFT: stage1
!!!END: 1997/04/15
!!format changes:
!!content changes:
!!public access: complete
!!!KEY: 393901223
!!!EMD: Converted from MuseData to Humdrum Dec 16, 2000, by Andreas Kornstaedt using muse2kern.
